kwskA/mujoco_kwsk/test_results/log_output/kinematics.csv
step,time,phase_name,qpos_qpos_0,qpos_qpos_1,qpos_qpos_2,qpos_qpos_3,qpos_qpos_4,qpos_qpos_5,qpos_qpos_6,qpos_qpos_7,qpos_qpos_8,qpos_qpos_9,qpos_qpos_10,qpos_qpos_11,qpos_qpos_12,qpos_qpos_13,qpos_qpos_14,qpos_qpos_15,qpos_qpos_16,qpos_qpos_17,qpos_qpos_18,qpos_qpos_19,qpos_qpos_20,qpos_qpos_21,qpos_qpos_22,qpos_qpos_23,qpos_qpos_24,qpos_qpos_25,qpos_qpos_26,qpos_qpos_27,qpos_qpos_28,qpos_qpos_29,qpos_qpos_30,qpos_qpos_31,qpos_qpos_32,qpos_qpos_33,qpos_qpos_34,qpos_qpos_35,qpos_qpos_36,qpos_qpos_37,qvel_qvel_0,qvel_qvel_1,qvel_qvel_2,qvel_qvel_3,qvel_qvel_4,qvel_qvel_5,qvel_qvel_6,qvel_qvel_7,qvel_qvel_8,qvel_qvel_9,qvel_qvel_10,qvel_qvel_11,qvel_qvel_12,qvel_qvel_13,qvel_qvel_14,qvel_qvel_15,qvel_qvel_16,qvel_qvel_17,qvel_qvel_18,qvel_qvel_19,qvel_qvel_20,qvel_qvel_21,qvel_qvel_22,qvel_qvel_23,qvel_qvel_24,qvel_qvel_25,qvel_qvel_26,qvel_qvel_27,qvel_qvel_28,qvel_qvel_29,qvel_qvel_30,qvel_qvel_31,qvel_qvel_32,qvel_qvel_33,qvel_qvel_34,qvel_qvel_35,qvel_qvel_36,qvel_qvel_37,com_x,com_y,com_z,cop_x,cop_y,cop_z,grf_x,grf_y,grf_z
0,0.005,Standing,-0.0002649545016015391,0.9492581822993436,-0.005983519322396769,0.010760650126494908,-0.003596966201545991,-0.3957297345022373,-0.00967382674430355,0.006671139734903584,0.061999404195749355,0.02014117553514829,0.05609631797773421,0.0248054283575484,-0.22415709860783486,0.026640398889315478,-0.029091801863991313,-0.4014665992989247,-0.02561103988390251,0.00958243369674771,-0.003604045785488613,-0.3957127443778806,-0.006641612026553432,0.00428323002444441,0.06226715834442332,0.020287349742669894,0.05621247375413447,0.024791732036945163,-0.2239206109484998,-0.02666838215034564,-0.029108043992838957,-0.40147770636114566,0.025613838220063568,0.006496199864531113,-0.02883751474958811,-0.08048937247458772,0.08159341816946852,-0.02882037135329671,-0.08049851518071134,-0.08159745455269388,-0.052990900320307815,-0.14836354013128855,-1.1967038644793537,2.1521300252989817,0.008406759690801806,-0.005946900447461561,-1.9347653488607097,1.3342279469807168,-0.11811916085013051,-0.03576489297034211,-0.07473640445315731,0.009085671509680412,-0.15141972156697533,-0.017920222136904685,0.011639627201736892,0.006680140215064183,0.0017920232194981792,1.9164867393495417,0.006990842902277308,-0.0025488755761289995,-1.3283224053106863,0.8566460048888819,-0.06456833111533754,-0.00653005146602121,-0.05150524917310669,0.006346407389032365,-0.1041221896999623,0.012323569930871874,0.008391201432208267,0.004458727770875796,-0.0012323559872862604,1.2992399729062225,-0.00750294991762182,0.0021255050824555435,-0.001316366106296368,-0.004074270659341579,0.0002969638577321732,0.000509089461224905,-0.09587103131805969,-0.00019806171942827054,0.9725757463050729,nan,nan,nan,nan,nan,nan
1,0.01,Standing,-0.0007806433718827038,0.9478104519659818,-0.01749097904975076,0.031434317444410956,-0.003504383893471313,-0.3957898188698862,-0.02824485031660517,0.019034241356290088,0.06096026632828852,0.01994115630641076,0.055348154493309765,0.024899481269576796,-0.22564690525352554,0.026464133343222014,-0.028985740296298114,-0.4013992802890189,-0.02559341332176987,0.0280246148416758,-0.0035320497910512343,-0.3957429748581381,-0.019458677537312234,0.012331425027576996,0.06166842961892126,0.02027958143776028,0.055694198986449485,0.024857640264532948,-0.22494987122439072,-0.0265465978792206,-0.02903202045861435,-0.4014321368559669,0.025601659800474342,0.018989482255284303,-0.028888815830785248,-0.08047363975377203,0.08158404447274652,-0.028848041320745137,-0.08049570503329387,-0.08159375600900651,-0.10313777405623295,-0.28954606667236077,-2.301491945470798,4.13473346358321,0.018516461614935587,-0.01201687352977088,-3.7142047144603243,2.472620324277301,-0.20782757349216724,-0.04000384574750644,-0.14963269688488906,0.01881058240567924,-0.2979613291381349,-0.035253109218693,0.021212313538640153,0.013463801981160924,0.0035253124265279623,3.688436228985618,0.014399198887475748,-0.006046096051494426,-2.5634131021517605,1.609639000626517,-0.11974574510041244,-0.0015536609819226579,-0.10365495353699744,0.013181645517556878,-0.2058520551781871,0.024356854225007902,0.015204706844921586,0.009113901035750382,-0.0024356839178453675,2.4986564781506377,-0.010260216239427553,0.003146544163138483,-0.00187473934440022,-0.005533993489685347,0.0005620294834958095,0.0007397087374745407,-0.09586950592479555,-0.0001980111394631006,0.972331468162533,nan,nan,nan,nan,nan,nan
2,0.015,Standing,-0.0015288230939465497,0.9457099854932769,-0.033810182303453756,0.06072037271531876,-0.0033592381844961194,-0.3958804895667996,-0.05451072473731759,0.035564834211027865,0.0596029246240269,0.0198162608223481,0.0542614054806386,0.02503778101369346,-0.22779436656496516,0.026210108008342253,-0.02884201274447023,-0.4013004873730755,-0.025568010779803155,0.0542182695089713,-0.003423663644152519,-0.39579307555960175,-0.03774698450013002,0.02333874090963762,0.060845558120871515,0.020330432481517877,0.05493376688023683,0.024955723574541084,-0.22644567993167786,-0.02636964583874976,-0.02892906167770606,-0.40136425325401137,0.02558396460490599,0.03670560741022582,-0.02893657829809151,-0.08045454258441205,0.08157403891233042,-0.028873380192278548,-0.08048994775454073,-0.08158946658391988,-0.14963594441276917,-0.4200932945409743,-3.2638406507405993,5.85721105418156,0.029029141795038703,-0.018134139382685557,-5.253174884142483,3.3061185709475556,-0.27146834085232374,-0.02497909681253182,-0.21734980253423347,0.02765994882333345,-0.42949226228792464,-0.050805066975951906,0.02874551036557737,0.019758583188678562,0.005080508393343329,5.238730933459101,0.02167722937974302,-0.010020140292728064,-3.6576613925635577,2.2014631764121244,-0.16457429960994902,0.010170208751519078,-0.1520864212425315,0.019616662001626903,-0.29916174145742724,0.03539040809416812,0.020591756181658063,0.013576720391109801,-0.00353903911367037,3.5432250309883035,-0.009552493461252745,0.003819433871997049,-0.002001112083218104,-0.005067774306682118,0.001151455750627317,0.0008578850173237547,-0.0958638718739196,-0.00019791041632134774,0.9718445336465585,nan,nan,nan,nan,nan,nan
3,0.02,Standing,-0.001957837595688507,0.9444488950739748,-0.03805431684563408,0.07207955869507057,-0.0032148124668822603,-0.3959417108999126,-0.06937012309271887,0.00021393159821510993,0.05860413858888993,0.019700282398340395,0.053427160930302434,0.02562312991217102,-0.22908687901925873,0.026035280931448267,-0.02873992360044243,-0.4012586547797772,-0.025538621770641957,0.06331450178920948,-0.003330127025898059,-0.395817018670389,-0.04758891907860554,0.004588307781802286,0.06028062619606841,0.020359372736104095,0.05439495523037733,0.025276333547747477,-0.2273088410444784,-0.026256163501983225,-0.028877142379198993,-0.40132827212937244,0.025569096269708894,0.040823033618972396,-0.028951682857237825,-0.0804349210398921,0.0815676010599381,-0.02887170581281931,-0.08048016114259979,-0.08158732596461578,-0.08580290034839141,-0.25221808386042743,-0.8488269084360653,2.2718371959503645,0.028885143522771804,-0.01224426662260111,-2.971879671080255,-7.07018052256255,-0.19975720702739433,-0.023195684801541425,-0.16684891006723204,0.1170697796955121,-0.2585024908587147,-0.034965415378797556,0.020417828805559854,0.008366518659663353,0.005877801832239128,1.8192464560476358,0.018707323650892053,-0.004788622157442603,-1.9683869156951037,-3.750086625567066,-0.11298638496062091,0.00578805091724352,-0.10776232997190034,0.06412199464127889,-0.17263222256010688,0.02269646735330761,0.010383859701413272,0.007196224927789641,-0.0029736670394196834,0.8234852417493155,-0.0030209118292627577,0.003924308903991367,-0.0012875704784638979,0.0003348758918475525,0.001957322388189109,0.0004281238608201024,-0.09585256573990744,-0.00019775988653674418,0.9711158790929976,nan,nan,nan,nan,nan,nan
4,0.025,Standing,-0.0018783633222097724,0.9444790670123595,-0.02421829516341664,0.05773635411135047,-0.003200744625588724,-0.39590324061666826,-0.07193495936958755,-0.017996632791332182,0.05815359800981572,0.019502516034588933,0.05304050740356231,0.02645635898776312,-0.22942477427059046,0.025957050092348465,-0.02870406660833749,-0.40126438545755455,-0.025516465750926278,0.047013791719585134,-0.003333060028178227,-0.39576871305387457,-0.04583156258254347,-0.011856633247328996,0.06017205570830615,0.020288992191213825,0.054287565133585645,0.025725667916266973,-0.22726296272325103,-0.026240524118847624,-0.02888835458685829,-0.4013373773837828,0.025561230101676918,0.024538490275980405,-0.028942735887974934,-0.08042607735065845,0.0815668316250011,-0.028851207209570216,-0.08047666878050606,-0.08158919251892295,0.015894854695746863,0.006034387676951747,2.7672043364434886,-2.8686409167440208,0.002813568258707197,0.00769405664886063,-0.512967255373737,-3.6421128779094585,-0.09010811581484264,-0.039553272750292044,-0.07733070534802532,0.16664581511841992,-0.06757905026634894,-0.01564616781996055,0.007171398420987853,-0.0011461355554785047,0.004431203943135847,-3.2601420139248702,-0.0005866004560336271,0.009661123302882546,0.35147129921241294,-3.2889882058262563,-0.021714097552450767,-0.014076108978054058,-0.02147801935833664,0.08986687370389887,0.009175664245473142,0.0031278766271202844,-0.0022424415318592853,-0.0018210508820690995,-0.001573233606395282,-3.256908668598398,0.0017893938525780587,0.0017687378467289246,-0.00015388698739881765,0.004099720649818615,0.000698472418746139,-0.0003733108614331964,-0.09585328020246198,-0.0001975593010245488,0.9701380714517414,nan,nan,nan,nan,nan,nan
5,0.030000000000000002,Standing,-0.0014495432374487742,0.9456033412714239,0.004543082018894324,0.022642142214713064,-0.003263651411549337,-0.39581416853846846,-0.06584803886840543,-0.023459096825517344,0.05811581882347372,0.019249285401480763,0.053060357386996514,0.02713654985394412,-0.22904227162331756,0.0259688113606688,-0.028688211466106242,-0.401317721397092,-0.025493756634242228,0.010007704377618165,-0.0034095354953391655,-0.39567243235165533,-0.035334892645623686,-0.02145116362318352,0.06043853226993023,0.0201282064298878,0.0545683201353147,0.026125077670963875,-0.22648992145840305,-0.026310488973015703,-0.02893436004383606,-0.40138618836754314,0.025558127070116173,-0.008650627576091894,-0.028928617420323696,-0.08042640738640097,0.08156908496254944,-0.0288275837376347,-0.08047894236142678,-0.08159299223267306,0.08576401695219965,0.2248548518128624,5.752275436462193,-7.018842379327481,-0.012581357192122557,0.01781441563995661,1.2173841002364227,-1.0924928068370323,-0.007555837268399895,-0.050646126621633945,0.00396999668684099,0.13603817323619954,0.07650052945458238,0.0023522536640670014,0.003171028446249448,-0.010667187907485278,0.004541823336809783,-7.401217468393393,-0.015295093432187682,0.019256140443842176,2.0993339873839565,-1.9189060751709053,0.053295312324814964,-0.03215715226520431,0.05615100034581151,0.0798819509393805,0.15460825296959463,-0.013992970833616045,-0.00920109139555425,-0.00976219675207485,-0.0006206063121485915,-6.63782357041446,0.002823693530247447,-6.600714850593594e-05,0.00045066750966774917,0.004724694387103128,-0.00045471618414207873,-0.0007599427500218775,-0.09583879740796182,-0.00019732517174885994,0.9689955225943504,nan,nan,nan,nan,nan,nan
6,0.035,Standing,-0.001161410720287377,0.9465753755796805,0.03639074350198261,-0.012529618802359643,-0.003355382492283864,-0.3957350594503359,-0.07210283352126756,0.06373473833208934,0.05782075650661278,0.019034469074286544,0.05281776990224202,0.027550707752076874,-0.22959487986873392,0.02588130032476599,-0.028567767262629322,-0.4013418659082595,-0.02545331058229602,-0.028850277845581605,-0.0034963740196793432,-0.39558767883913104,-0.030587912379695725,0.007963299861214246,0.06059292146643077,0.01996955060395047,0.0547487763903407,0.026382675555318157,-0.22611913600576158,-0.026338952218372298,-0.02892512263353086,-0.40142388877247276,0.025548175260629236,-0.045658390301603485,-0.028938623532906355,-0.08042515742872529,0.08156820825017905,-0.028826508820205633,-0.08047990515974061,-0.08159385486927935,0.05762650343227943,0.1944068616513379,6.369532296617658,-7.034352203414541,-0.018346216146905375,0.015821817626510325,-1.2509589305724278,17.438767031521337,-0.05901246337218846,-0.04296326543884394,-0.04851749695089897,0.08283157962655101,-0.11052164908327491,-0.017502207180561627,0.024088840695384167,-0.004828902233505605,0.008089210389241139,-7.771596444639954,-0.017367704868035558,0.016950702504858608,0.9493960531855923,5.882892696879553,0.030877839300108432,-0.03173116518746677,0.036091251005200345,0.05151957687085673,0.07415709052829494,-0.005692649071318907,0.001847482061039898,-0.007540080985926663,-0.0019903618973877,-7.401552545102317,-0.0020012225165319834,0.00024999153513649076,-0.00017534247407889863,0.00021498348581360655,-0.00019255966276867644,-0.00017252732125685956,-0.0958084755361317,-0.00019706788269970222,0.9677377366032235,nan,nan,nan,nan,nan,nan
7,0.04,Standing,-0.001170975386861903,0.9468521803356356,0.060828327802938904,-0.039284696201111455,-0.0032909889252232217,-0.3957461733748841,-0.07443760555984204,0.06015295621647145,0.057524412043852925,0.018915872041986984,0.052562783901262546,0.02810170782275957,-0.22979574363529512,0.025834445146511658,-0.028427975528320392,-0.4014029308880786,-0.02540572896055518,-0.05587773918114457,-0.0035067077410977014,-0.39556397559524636,-0.03268451433955185,0.027826129747450096,0.06031762548171943,0.01970612528636169,0.054662098034864104,0.026642189833024424,-0.22625382971862784,-0.026310392585230533,-0.028857444005253887,-0.4014463924763361,0.025529017451827736,-0.07436319522717748,-0.02931323527896608,-0.08022968526865468,0.08148169020028447,-0.029284992634904437,-0.08023370019700166,-0.08148726832382108,-0.0019129333149052186,0.05536095119100537,4.887516860191258,-5.3510154797503615,0.012878713412128397,-0.002222784909648161,-0.46695440771489616,-0.7163564231235782,-0.05926889255197163,-0.023719406459912183,-0.050997200195893794,0.1102000141365392,-0.04017275331223942,-0.009371035650866765,0.0279583468617859,-0.012212995963824892,0.009516324348168103,-5.405492267112592,-0.0020667442836716007,0.004740648776938626,-0.4193203919712247,3.9725659772471698,-0.05505919694226802,-0.05268506351775575,-0.017335671095320068,0.05190285554125335,-0.02693874257324906,0.005711926628353355,0.013535725655394622,-0.004500740772668639,-0.0038315617603002236,-5.740960985114798,-0.07492234921194524,0.039094432014122105,-0.01730360997891526,-0.09169676293976092,0.04924099254779075,0.02131730909165391,-0.09577457332831103,-0.0001967591867753523,0.9662341127880748,nan,nan,nan,nan,nan,nan
8,0.045,Standing,-0.0019273375164665276,0.9452356164632199,0.06368708729832769,-0.030450639911107795,-0.003147191998009939,-0.39582960905886166,-0.10346577940681795,0.10919173597900093,0.056092179149132324,0.01863613283388732,0.05141675749822,0.028582647390638566,-0.232096207994483,0.025545607027817892,-0.0281486754296239,-0.4013581390468394,-0.025342597650120466,-0.04952780062090627,-0.003397864473511978,-0.3956217286706195,-0.053096733995051035,0.04933288196779767,0.0590978088933593,0.019315762444204004,0.053854775377027694,0.026985034518240768,-0.22783660931163408,-0.026111469247079185,-0.028673985081473227,-0.40140735220895774,0.02549358407952998,-0.07931159915517152,-0.0302014905071377,-0.0797781739501278,0.08128200979050877,-0.030286131213828088,-0.07971485767623868,-0.08126192350603488,-0.1512724259209249,-0.323312774483142,0.5717518990777561,1.7668112580007316,0.02875938544265656,-0.016687136795511787,-5.805634769395183,9.807755952505897,-0.28644657894411973,-0.05594784161993241,-0.22920528060850873,0.09618791357579927,-0.4600928718375737,-0.05776762373875301,0.055860019739298425,0.008958368247839889,0.012626262086942428,1.2699877120476604,0.021768653517144666,-0.011550615074624597,-4.082443931099836,4.301350444069515,-0.24396331767202573,-0.07807256843153706,-0.16146453156728124,0.06856893704326904,-0.3165559186012479,0.03978466763026968,0.03669178475613219,0.007808053475679255,-0.007086674459551233,-0.9896807855988108,-0.1776510456343241,0.09030226370537393,-0.03993608195513952,-0.20022771578473036,0.10376850415259692,0.04506896355724049,-0.09574428079018121,-0.00019640768263294798,0.9645038342704129,nan,nan,nan,nan,nan,nan
9,0.049999999999999996,Standing,-0.0026323790973609147,0.9447211775871563,0.07291436284249372,-0.03622931779536073,-0.002722747654816352,-0.3960022211964363,-0.10000026740381397,-0.25326469337185226,0.05541720836323767,0.018614414551073623,0.05091290358341338,0.029434071502378343,-0.2317994156550894,0.02555834216941002,-0.026816911947954748,-0.40212065231528654,-0.024845838703309538,-0.05307757030839032,-0.00330418320178952,-0.3956208996564008,-0.06305601822570285,0.0350248446233463,0.058256256001355755,0.018997865035158996,0.053327023316930657,0.02738935497803217,-0.22866496653575988,-0.02599891990159372,-0.027907329702545218,-0.40174992739496934,0.025239664261156723,-0.0914502826864067,-0.0308741318759009,-0.079399769776091,0.08112156223636796,-0.0310415677606628,-0.07928463126202584,-0.08108224764326388,-0.14100831617887744,-0.10288777521269368,1.845455108833208,-1.1557355768505873,0.08488886863871746,-0.0345224275149298,0.6931024006007949,-72.49128587017064,-0.13499415717893073,-0.004343656562739377,-0.10077078296132352,0.1702848223479552,0.05935846787871718,0.0025470283184252235,0.26635269633383074,-0.15250265368942315,0.09935178936218597,-0.7099539374968102,0.018736254344491544,0.0001658028437466711,-1.9918568461303643,-2.8616074688902744,-0.16831057840070873,-0.06357948180900132,-0.10555041201940778,0.08086409195828065,-0.16567144482516327,0.022509869097093314,0.15333107578560157,-0.06851503720232438,-0.05078396367465097,-2.4277367062470354,-0.13452827375263984,0.07568083480735963,-0.032089510828160986,-0.15108730936694248,0.08604528284256818,0.035935172554200104,-0.09568105411523782,-0.00019605071310350688,0.9627560676946277,nan,nan,nan,nan,nan,nan
10,0.05499999999999999,Standing,-0.0038138519665947192,0.9429485425740742,0.0705327987396295,-0.01905076633787932,-0.0026915214830715317,-0.3960290880929568,-0.12399508864440446,-0.38356585399941223,0.05426802308194864,0.01834336872871188,0.05002070628253105,0.029701083159211373,-0.23377732177228586,0.025316083038926098,-0.026025823464914145,-0.4023884057381772,-0.02458407414304254,-0.03837164071496835,-0.0031734988739223658,-0.3956427181666977,-0.08375500752341711,0.037407681611313526,0.05708998395410264,0.018768582663404344,0.05243144162499808,0.027752117058600045,-0.23035808707419697,-0.02578724661115173,-0.027111593527572343,-0.402024140131091,0.02498840877487957,-0.09108066712859428,-0.03155567107271101,-0.07903061222015217,0.08096286316793225,-0.03175378466817776,-0.07889341277818025,-0.0809166852379438,-0.23629457384676095,-0.3545270026164329,-0.4763128205728435,3.435710291496283,0.006245234348964082,-0.005373379304092374,-4.798964248118098,-26.060232125512,-0.22983705625780645,-0.0542091644723485,-0.17843946017646584,0.05340233136660623,-0.3955812234392888,-0.04845182609678381,0.1582176966081208,-0.05355068457813378,0.05235291205339948,2.9411859186843934,0.026136865573430847,-0.004363702059387401,-4.139797859542853,0.47656739759344546,-0.2332544094506222,-0.04585647435093042,-0.17911633838651414,0.07255241611357457,-0.3386241076874174,0.04233465808839772,0.15914723499457503,-0.054842547224327215,-0.05025109725543071,0.07392311156248565,-0.13630783936202287,0.07383151118776621,-0.03173981368714233,-0.14244338150299324,0.07824369676911722,0.033112481064016056,-0.0956622545237411,-0.00019570593495869847,0.9610087903646147,nan,nan,nan,nan,nan,nan
11,0.05999999999999999,Standing,-0.004973025922980444,0.9414134702925516,0.0719538657199369,-0.004729209864355356,-0.002723473291044702,-0.39603935504060633,-0.15845695044305635,-0.3902230063096169,0.053056733895611524,0.018268209511127703,0.04876618944841862,0.03023160260969886,-0.23668496105242928,0.024949367980092077,-0.025619506429892094,-0.4023718541821771,-0.024469149263944643,-0.029234058371847352,-0.0030595746592878593,-0.3956362721455977,-0.10183809513327083,0.04568440190002407,0.05614817670727037,0.018686615150728083,0.051574227598509645,0.028240024153388124,-0.2318941661951378,-0.025587892499370445,-0.026407079053497828,-0.4022530201765897,0.0247573658105745,-0.09507349372960217,-0.031947415564335446,-0.07880953281161306,0.08086905893877237,-0.032169625963435526,-0.07865383984201554,-0.08081686662351774,-0.23183479127714493,-0.3070144563045256,0.28421339606147866,2.8643112947047924,-0.006390361594634037,-0.0020533895299053263,-6.89237235973038,-1.331430462040938,-0.24225783726742373,-0.015031843516835744,-0.25090336682248554,0.10610389009749732,-0.581527856028685,-0.0733430117668043,0.08126340700441052,0.0033103112000238757,0.022984975819579367,1.827516468624199,0.022784842926901267,0.0012892042200035826,-3.616617521970743,1.655344057742108,-0.18836144936645433,-0.016393502535252184,-0.1714428052976881,0.09758141895761607,-0.30721582418816606,0.03987082235625717,0.14090289481490342,-0.045776009099736614,-0.04620859286101436,-0.7985653202015782,-0.07834889832488709,0.04421588170782272,-0.018760845831975702,-0.08316825905155192,0.04791458723294045,0.01996372288521253,-0.09563199390404638,-0.00019536867040768563,0.9593545153144533,nan,nan,nan,nan,nan,nan
12,0.06499999999999999,Standing,-0.006152995049349569,0.9401846018777162,0.07588209037513755,0.007023518638544661,-0.002667712145735624,-0.39608702037650184,-0.1974073203189083,-0.33837329810955297,0.05178889046899118,0.01840491264397611,0.047238765562680515,0.030919969926464008,-0.24000719758459554,0.024527938430546924,-0.025281458434802995,-0.4022714740391799,-0.02436867968916771,-0.023030709227924863,-0.002944014852927158,-0.39562934034888975,-0.11963921207354616,0.056874043706835874,0.05530371891585829,0.01869888293373987,0.05071498624347635,0.028721903701087303,-0.2334247653872217,-0.02538948031470503,-0.025827514428348484,-0.4024069304613366,0.024562006629944233,-0.10198444014024619,-0.03215572725203458,-0.07868254337135422,0.080815827741631,-0.03241442136497266,-0.07850107571206015,-0.08075427227331569,-0.2359938252738251,-0.2457736829670805,0.7856449310401316,2.3505457005800032,0.01115222906181559,-0.009533067179097215,-7.790073975170393,10.36994164001279,-0.25356868532406823,0.027340626569681697,-0.30548477714762123,0.1376734633530298,-0.6644473064332544,-0.08428590990903038,0.06760959901781946,0.020076028599436028,0.02009391495538674,1.240669828784498,0.02311196127214022,0.001386359341592437,-3.560223388055068,2.2379283613623606,-0.16889155828241614,0.002453556602357382,-0.17184827100666003,0.09637590953983602,-0.3061198384167788,0.039682436933083695,0.1159129250298683,-0.030782056949374352,-0.03907183612605339,-1.382189282128805,-0.04166233753982671,0.025397888051767094,-0.010646239428274772,-0.04895908030742745,0.03055282599107809,0.012518870040409776,-0.09563194953748204,-0.0001950431428206642,0.957794887787651,nan,nan,nan,nan,nan,nan
13,0.06999999999999999,Standing,-0.0072632470765261305,0.9398763372060848,0.08607921459542199,0.0078113481106771515,-0.0025490496266997666,-0.3961208874346119,-0.228698996894471,-0.27299793536110323,0.05076614292939671,0.01864944989504582,0.04577876828731484,0.03181168646962036,-0.24275612648542355,0.024166526453236848,-0.024979320890002165,-0.40219250819948765,-0.02424497002110199,-0.024999455644040776,-0.0028405231593783232,-0.3956257563437604,-0.1348463713718735,0.06659891142440605,0.05461111535525117,0.01876019693710629,0.04993348848113849,0.029211909495936432,-0.23475699382361875,-0.025213855679162202,-0.025412357101511424,-0.4024873519211934,0.02441389615114147,-0.11595188439721156,-0.032236279596190916,-0.07861659535037202,0.08078954094789156,-0.03253488202276783,-0.07840526809507284,-0.08071715597814223,-0.22205040543531224,-0.061652934326295095,2.0394248440568887,0.15756589442649815,0.02373250380717147,-0.006773411622006736,-6.258335315112541,13.07507254968995,-0.2045495079188947,0.0489074502139419,-0.2919994550731349,0.17834330863127112,-0.549785780165604,-0.07228239546201484,0.06042750896016586,0.015793167938449135,0.024741933613143877,-0.3937492832231828,0.020698338709767002,0.0007168010258701919,-3.041431859665465,1.944973543514034,-0.13852071212142314,0.012262800673284087,-0.15629955246757116,0.0980011589698261,-0.26644568727940715,0.035124927108565226,0.08303146536741213,-0.016084291971364885,-0.02962209576055308,-2.7934888513930756,-0.01611046883126611,0.013189604196439117,-0.005257358747888463,-0.024092131559033954,0.019161523397463527,0.007423259034691229,-0.0956597977594589,-0.0001947548804840879,0.9564226032246143,nan,nan,nan,nan,nan,nan
14,0.075,Standing,-0.008390555003060641,0.9401175845902892,0.0988329375699269,0.0027301945517042596,-0.002393624450149072,-0.3961608321100051,-0.25313727103616496,-0.2080834975626213,0.04994049228934316,0.018912202798623295,0.04442501579814725,0.03281745067548053,-0.24494570704379795,0.02386683270550436,-0.02476528785092533,-0.40211311102899105,-0.024131053275043005,-0.029731002300330288,-0.002734731749189116,-0.39564237915133577,-0.1499661238976712,0.07523383019942971,0.05396453430252912,0.018848866240645558,0.04916849772161546,0.02965217113371808,-0.23607509356611697,-0.025042128854838114,-0.02514121766447553,-0.40249420073156406,0.024312875339898076,-0.13282584977577366,-0.03227565740266559,-0.07857170517881455,0.0807718380411208,-0.03260217894007827,-0.07833606207949981,-0.08069143756587752,-0.22546158530690222,0.04824947684088286,2.550744594900983,-1.0162307117945784,0.03108503531013893,-0.007988935078637916,-4.887654828338787,12.98288755969639,-0.16513012801071092,0.0525505807154947,-0.2707504978335196,0.20115284117203405,-0.437916111674881,-0.059938749546497215,0.042806607815367076,0.01587943409931517,0.02278334921179682,-0.9463093312579026,0.021158282037841432,-0.003324561515069279,-3.023950505159542,1.7269837550047313,-0.12931621054441053,0.017733860707853353,-0.15299815190460506,0.08805232755632963,-0.2636199484996454,0.03434536486481742,0.054227887407178904,-0.0013697620741292028,-0.02020416224867829,-3.37479307571242,-0.00787556129493451,0.00897803431149351,-0.0035405813541522944,-0.013459383462086815,0.013841203114606297,0.005143682452943625,-0.09576877553330285,-0.0001945523494052138,0.955456005496166,nan,nan,nan,nan,nan,nan
15,0.08,Standing,-0.009586156313465991,0.9408431474021959,0.11313828867126165,-0.006689365591477652,-0.0022331439531946143,-0.3961907203045228,-0.2705524133403863,-0.1517208100398228,0.049316000504937285,0.019142396048173155,0.04330314551559794,0.033689441650033396,-0.2465426850917252,0.023643087250905716,-0.02462191829485746,-0.40204617948533,-0.024024254936943035,-0.03621519217948449,-0.0026289905048176355,-0.39568399256239445,-0.16462927947106665,0.08203948736800686,0.053372367129366764,0.018961280459714402,0.0484323707397458,0.030042055370519693,-0.2373521381166071,-0.024877415040147424,-0.02499620910374583,-0.4024434655243226,0.024254298733967564,-0.15153428436584482,-0.032294458779222796,-0.07853806888860898,0.08075896520220459,-0.03262561236058955,-0.07829140185550891,-0.08067629685087607,-0.23912026208107018,0.14511256238135492,2.861070220266949,-1.8839120286363822,0.03209609939089153,-0.0059776389035429665,-3.483028460844273,11.272537504559697,-0.12489835688117384,0.04603864990997189,-0.22437405650986172,0.17439819491057268,-0.31939560958544994,-0.04474909091972909,0.028673911213573905,0.013386308732208448,0.021359667619994204,-1.2968379758308406,0.021148248874296054,-0.008322682211738486,-2.9326311146790918,1.3611314337154297,-0.11843343463247162,0.022482843813769166,-0.14722539637393117,0.0779768473603225,-0.25540891009802574,0.03294276293813786,0.029001712145940273,0.010147041448298097,-0.011715321186102108,-3.7416869180142287,-0.0037602753114421078,0.00672725804111551,-0.0025745677832429963,-0.004686684102256613,0.008932044798178277,0.003028143000288902,-0.09594958031886017,-0.00019441882171155074,0.9548153176212336,nan,nan,nan,nan,nan,nan
16,0.085,Standing,-0.01091178574507777,0.9419787624873673,0.12804141735186306,-0.018461025331652142,-0.002080594695936256,-0.3961958589728545,-0.2824734234036875,-0.10648125297343308,0.04885607217008993,0.01932127375509084,0.04245184497977888,0.034287949312078354,-0.2476569929783899,0.023488086701396238,-0.024466917447827433,-0.40202250929676464,-0.02388940789424928,-0.04347406639756299,-0.002526337888705581,-0.3957490799716477,-0.1784387842203352,0.08666318682940541,0.052844251850211535,0.019092084524523076,0.047742024792872866,0.030374021794736968,-0.23855746705876088,-0.024723563581022946,-0.024952526532836656,-0.40235289955330833,0.024230700624633488,-0.1710994472245626,-0.03229756424058415,-0.07851384289306909,0.0807506502954683,-0.03261155393430337,-0.07827012719537975,-0.08067120773901706,-0.2651258863223559,0.22712301703429513,2.9806257361202806,-2.354331948034898,0.03050985145167164,-0.0010277336663411163,-2.3842020126602264,9.047911413277943,-0.09198566696947182,0.035775541383537286,-0.1702601071638125,0.11970153240899212,-0.22286157733293882,-0.031000109901896014,0.03100016940600555,0.0047340377130769135,0.02696940853875094,-1.4517748436157,0.020530523222410918,-0.013017481850652862,-2.76190094985371,0.9247398922797103,-0.10562305583104592,0.026160812961734968,-0.138069189374587,0.06639328484345511,-0.2410657884307536,0.03077029182489575,0.008736514181834468,0.018113194202855613,-0.004719621866815304,-3.9130325717435595,-0.000621092272271008,0.004845199107978783,-0.0016629813472593697,0.002811685257235969,0.004254932025831849,0.0010178223718014866,-0.09621640111526156,-0.00019435517983926702,0.9545040028996489,nan,nan,nan,nan,nan,nan
17,0.09000000000000001,Standing,-0.012401197157421207,0.94353373249392,0.1433870023997576,-0.0319482930252133,-0.0019475605528681565,-0.39617324446259833,-0.28985882482414865,-0.07229152561229282,0.04854367244918493,0.019447689913425718,0.041857166022427096,0.03462851595688215,-0.24836440114702535,0.023391887507927762,-0.024300888072538385,-0.4020348466308861,-0.023739276674685325,-0.05127173683188877,-0.002427772490700951,-0.395829026546835,-0.19132322924116194,0.08863404550975625,0.05237925497636106,0.01923790926020802,0.047100944151519795,0.030652260823864075,-0.23968375190514682,-0.024581200434539853,-0.024983896610516407,-0.402237396090785,0.024233791463064425,-0.19141363570030187,-0.03228727856170767,-0.07849709920517617,0.08074659126433535,-0.03256849852446004,-0.0782678115342462,-0.08067440654623252,-0.2978822824686875,0.31099400131054933,3.0691170095789087,-2.6974535387122316,0.026606828613619904,0.004522902051224741,-1.4770802840922308,6.837945472228051,-0.06247994418099956,0.025283231666975665,-0.11893579147035642,0.0681133289607584,-0.14148163372709316,-0.019239838693695388,0.03320587505780968,-0.0024674668242965266,0.030026243912791087,-1.5595340868651564,0.01971307960092595,-0.015989315037453492,-2.576889004165343,0.39417173607016753,-0.0929993747700941,0.029164947136988497,-0.12821612827061393,0.05564780582542107,-0.2252569692771883,0.028472629296618344,-0.0062740155359499675,0.023100692504663442,0.0006181676861874048,-4.062837695147855,0.002057135775296651,0.0033487375785834906,-0.0008118062265891888,0.008611081968667136,0.00046313222671106593,-0.0006397614430914329,-0.09658103241317155,-0.0001943627685460462,0.9545262971723494,nan,nan,nan,nan,nan,nan
18,0.09500000000000001,Standing,-0.014071386899782764,0.9454857126139435,0.15898968626170887,-0.046673375288212436,-0.0018418108100716048,-0.39612975498026876,-0.2934670276258658,-0.047838873854768774,0.04836537738737859,0.01952832776666428,0.04149077186085291,0.03475717686951416,-0.2487292243677034,0.023344722672715795,-0.0241645886677341,-0.4020574544673536,-0.023609578521567063,-0.05927180117498528,-0.002332354881923812,-0.3959184226781595,-0.20359256549312105,0.08800051242168216,0.05196364047805542,0.019396752930923696,0.04649857361645972,0.030885692326865194,-0.24075396778248861,-0.02444721051051518,-0.025065886962207497,-0.4021073516844695,0.024256007963176705,-0.21230338430416612,-0.03227229129591877,-0.07848191501728824,0.0807446303440626,-0.032507432955523455,-0.07827820944915856,-0.08068329043026393,-0.3340379484723112,0.39039602400471096,3.1205367723902553,-2.9450164525998277,0.021149948559310332,0.008697896465919362,-0.7216405603434239,4.89053035150481,-0.03565901236126806,0.016127570647712024,-0.07327883231483603,0.025732182526402726,-0.07296464413561159,-0.009432967042393254,0.027259880960856714,-0.004521567293489519,0.02593963062365251,-1.6000128686193018,0.01908352175542775,-0.017879226264905557,-2.45386725039182,-0.12670661761481528,-0.08312289966112822,0.03176873414313519,-0.12047410701201558,0.04668630060022349,-0.21404317546835908,0.02679798480493461,-0.01639807033821814,0.026008881263106017,0.004443300022455901,-4.177949720772849,0.002997453157779651,0.0030368375775861145,-0.00039218405455132056,0.012213113787316963,-0.0020795829824716205,-0.001776776806280633,-0.0970471900011618,-0.0001944453798080147,0.9549050455804508,nan,nan,nan,nan,nan,nan
19,0.10000000000000002,Standing,-0.015932682274499208,0.9477728062320439,0.17451273848405344,-0.061704509923394976,-0.001761272150826151,-0.3960805324830069,-0.2944986982300608,-0.03286704152734179,0.04828923845661071,0.019576135574271417,0.04130259351457821,0.034723456009358444,-0.24885091124509245,0.023332779616299537,-0.024088680519896783,-0.40206800102422324,-0.02352667600730151,-0.06696653227132299,-0.0022385510523392663,-0.3960140707897083,-0.21557274633606668,0.08506019906369804,0.0515828603705349,0.019567605820475762,0.04592145121063667,0.031086197028998182,-0.24179427108140406,-0.024317991746351526,-0.025178413438088836,-0.4019701233979297,0.02429100334258577,-0.2334124722667907,-0.03226156739149151,-0.07846264386180882,0.08074253590660396,-0.03243786885193408,-0.07829615894577104,-0.08069558618376796,-0.37225907494328864,0.45741872362007047,3.1046104444689124,-3.006226927036508,0.016107731849090777,0.009844499452376549,-0.20633412083900704,2.994366465485397,-0.015227786153574879,0.009561561521427467,-0.03763566925493975,-0.006744172031142998,-0.024337375477814116,-0.0023886112832512537,0.015181629567463334,-0.002109311373934628,0.01658050285311072,-1.5389462192675403,0.018760765916909224,-0.019129622309756757,-2.3960361685891263,-0.5880626715968265,-0.07615602150410322,0.03417057791041317,-0.11542448116460909,0.04010094042659765,-0.20806065978308566,0.025843752832730802,-0.022505295176267807,0.027445657307956,0.0069990758818135055,-4.221817592524917,0.0021447808854525158,0.003854231095883126,-0.0004188874917254767,0.013912820717875043,-0.0035898993224958743,-0.002459150700805702,-0.09761778321943074,-0.00019460074600494853,0.9556360447289628,nan,nan,nan,nan,nan,nan
20,0.10500000000000002,Standing,-0.01798488118253769,0.9502631706030263,0.1892914768509486,-0.07558746977830808,-0.0016984395445438093,-0.39604394026895384,-0.2945177622395804,-0.026801570756512426,0.04826959880896121,0.01960655462700086,0.04122624432978016,0.034577724260414264,-0.24886002192843715,0.02333862587105553,-0.02408115747669543,-0.4020538019220448,-0.023498246653876922,-0.07345611709746283,-0.002143783989140233,-0.3961146608774481,-0.22767726105514827,0.0803126257498306,0.05122002780483738,0.01975097747635622,0.04535224368710321,0.03126568412103541,-0.24283888247549923,-0.024189014710934896,-0.025305207010322586,-0.4018302012868924,0.02433359539809335,-0.25399527161532554,-0.032265049771717715,-0.07843394768903447,0.08073799791829203,-0.03236674564796395,-0.07831858237420926,-0.08070973519149166,-0.41043978160769684,0.4980728741965073,2.9557476733790353,-2.7765919709826195,0.012566521256468318,0.007318442810614911,-0.0038128019039245786,1.2130941541658722,-0.003927929529901699,0.006083810545888649,-0.015269836959611576,-0.029146349788836325,-0.0018221366689394648,0.0011692509511990034,0.0015046086402709796,0.0028398204356851987,0.005685870684917795,-1.29791696522797,0.01895341263980668,-0.02011801754795999,-2.4209029438163188,-0.9495146627734872,-0.0725665131395048,0.03667433117609203,-0.11384150470669213,0.03589741840744552,-0.20892227881903347,0.025795407083325967,-0.025358714446750162,0.027984422207464343,0.008518411101515916,-4.11655986970696,-0.0006964760452411118,0.005739234554869418,-0.000907597662384956,0.014224640794025759,-0.004484685687645754,-0.002829801544739371,-0.098281901720014,-0.00019482165539567764,0.9566898875608243,nan,nan,nan,nan,nan,nan
21,0.11000000000000003,Standing,-0.020206527087564482,0.952718215634234,0.20212367352821065,-0.08653381580516431,-0.001647534572187743,-0.3960353754883996,-0.2951836923976239,-0.02472037009719817,0.04825606871958025,0.01962832238280255,0.041192883186543086,0.03436499266248443,-0.2488994421330301,0.023343491888178095,-0.024133411157265968,-0.40200958114433755,-0.023517878679298616,-0.0772080276928039,-0.00204430694703731,-0.3962204040794853,-0.24046035984568231,0.07460816139069776,0.050855041805245714,0.01994936380007042,0.04476831583693917,0.031436333144948585,-0.24393409721941628,-0.02405433106434493,-0.02543302566059802,-0.40168949584194524,0.02437959880340269,-0.27266050996250374,-0.032296392760669736,-0.07838928007474498,0.0807280271757998,-0.03229714602755577,-0.07834561246624737,-0.08072529405910708,-0.4443291810053584,0.4910090062415251,2.5664393354524084,-2.1892692053712484,0.01018099447121327,0.0017129561108432658,-0.13318603160868572,0.41624013186285114,-0.002706017876192078,0.004353551160338003,-0.006672228647414038,-0.04254631958596569,-0.007884040918592402,0.0009732034245125858,-0.010450736114108154,0.008844155541458752,-0.00392640508433926,-0.7503821190682118,0.019895408420584557,-0.021148640407426766,-2.5566197581068115,-1.140892871826568,-0.07299719991833294,0.03967726474283995,-0.11678557003280855,0.03412980478263422,-0.21904294878340877,0.026936729317992816,-0.02556373005508682,0.028141088989430692,0.009200681061868308,-3.733047669435642,-0.006268597790404386,0.008933522857898599,-0.001994148498446631,0.013919924081636231,-0.005406018407622184,-0.0031117735230842044,-0.09902078685249445,-0.00019509335436336414,0.957997840784272,nan,nan,nan,nan,nan,nan
22,0.11500000000000003,Standing,-0.022569509703421513,0.9550064480584766,0.21254574633883483,-0.09388898414687079,-0.0016033461855213386,-0.3960570126527913,-0.297055799976807,-0.024087196167797205,0.04822367978952384,0.019649353174369374,0.04115912126029457,0.03412791918604457,-0.24902619759162714,0.023338906195900178,-0.024229867602320935,-0.4019399684041416,-0.023571415893892885,-0.07773098788558983,-0.001939519058929023,-0.39633041742324615,-0.25396925047199675,0.06835038515666209,0.050483760392492916,0.0201638029440697,0.044161742940227455,0.03160968224595092,-0.2450872215346026,-0.02391258430720495,-0.02555531249845063,-0.40154991908337384,0.024426174963790386,-0.28885006726007434,-0.03234693109748274,-0.07833478893478048,0.08071466739018637,-0.032225143997693655,-0.0783799423364688,-0.08074304157531433,-0.4725965231714063,0.45764648484852355,2.084414562124838,-1.471033668341296,0.008837677333280874,-0.004327432878335432,-0.3744215158366179,0.12663478588019317,-0.006477786011281586,0.004206158313365173,-0.0067523852497028015,-0.04741469528797276,-0.02535109171940486,-0.0009171384555833981,-0.019291289010993157,0.013922548039189953,-0.010707442918854055,-0.10459203855718635,0.020957577621657435,-0.022002668752179242,-2.701778125262887,-1.2515552468071331,-0.07425628255056013,0.042887828799855726,-0.12131457934234285,0.03466982020046625,-0.23062486303726396,0.028349351427996366,-0.024457367570522543,0.027915351714278572,0.009315232077538824,-3.237911459514124,-0.010107667362600263,0.010898227992899365,-0.002671957122684117,0.014400405972423222,-0.006865974044286804,-0.003549503241447282,-0.09982585329239566,-0.0001953903609717554,0.9594366168313508,nan,nan,nan,nan,nan,nan
23,0.12000000000000004,Standing,-0.025045045186512245,0.9570783706938366,0.22066156139104878,-0.09778430434067328,-0.0015618531575595737,-0.39610518328147387,-0.3002730358680185,-0.023332129775666993,0.048162558944944395,0.019678399041521376,0.04109918447893102,0.03389611061398651,-0.2492607952529462,0.023321269116764756,-0.024356225836096902,-0.40185130874952707,-0.02364559736812311,-0.07532579627881703,-0.0018314318810000495,-0.39644244586163974,-0.26788663991022715,0.06167350163310726,0.05011301730282914,0.02039153977334859,0.043535331122951534,0.03179936031299057,-0.24627558721649137,-0.023765813185917237,-0.025670077664030753,-0.4014135635809962,0.024471682346432624,-0.3026447282440074,-0.032393940623336656,-0.07828506335396432,0.08070314390335755,-0.03214462470026884,-0.07842460579209963,-0.08076402387188396,-0.4951070966181461,0.41438452707200446,1.6231630104427914,-0.7790640387605001,0.008298605592352987,-0.009634125736511727,-0.6434471782423064,0.1510132784260426,-0.012224168915889046,0.005809173430400619,-0.011987356272710857,-0.04636171441161252,-0.04691953226381355,-0.0035274158270845657,-0.025271646755193247,0.01773193092290835,-0.014836294846045048,0.4810383213545607,0.021617435585794667,-0.022405687678713287,-2.7834778876460744,-1.3353767047109648,-0.07414861793275562,0.04554736585577818,-0.12528236345518395,0.03793561340792939,-0.23767313637775433,0.02935422425754232,-0.022953033116024223,0.027271100475524276,0.009101476528447564,-2.758932196786607,-0.009401905170782869,0.009945116163232586,-0.002304697365766298,0.016103859484962613,-0.008932691126165923,-0.004196459313927191,-0.10068697296353596,-0.0001956953806868604,0.9609205256570441,nan,nan,nan,nan,nan,nan
24,0.12500000000000003,Standing,-0.027604845062410583,0.9589319665085512,0.2268665136155218,-0.09884799426601798,-0.0015208058741304072,-0.3961727714847815,-0.3045594425628838,-0.022169638316180542,0.04807878587737297,0.01972478728980627,0.041002908038067595,0.03369329872669152,-0.2495872711641965,0.023291501705283792,-0.02449872781692701,-0.401751961504415,-0.02372888250692628,-0.07072708939418863,-0.0017240173712469555,-0.39655274022299186,-0.2816568193286584,0.054583505756481764,0.049756785433694224,0.02062635271290534,0.04289761139820041,0.03202446957960855,-0.2474555786551301,-0.023618239118421494,-0.025778134988510733,-0.40128278508413356,0.024515397832980814,-0.31444811488914126,-0.032419960172174855,-0.07825106735671923,0.08069727753835865,-0.03204991167656522,-0.07848180111609665,-0.08078908395445142,-0.5119599751796678,0.3707191629429227,1.2409904448946008,-0.21273798506894037,0.008209456685833266,-0.013517640661529,-0.8572813389730617,0.23249829189728993,-0.016754613514285182,0.009277649656978484,-0.01925528817268363,-0.04056237745899642,-0.06529518225005526,-0.005953482296193099,-0.028500396166021666,0.01986944902241857,-0.01665702776063373,0.9197413769256788,0.02148290195061879,-0.022058872270429117,-2.7540358836862433,-1.4179991753250987,-0.0712463738269825,0.04696258791134958,-0.12754394495022406,0.04502185332359587,-0.2359982877277431,0.029514813499148345,-0.021611464895995976,0.026155699372529373,0.008743097309638381,-2.360677329026769,-0.0052039097676404,0.006799199449017747,-0.0011732729997791205,0.01894260474072315,-0.011439064799404932,-0.005012016513492753,-0.10159533035935982,-0.00019599738387987488,0.9623939835199781,nan,nan,nan,nan,nan,nan
25,0.13000000000000003,Standing,-0.030225732588495497,0.9605776995872862,0.2315777955222275,-0.09774286026610549,-0.0014788136088929019,-0.3962534128557549,-0.30967697447071124,-0.020533275273880377,0.04797894762119133,0.019793882859907023,0.040865276312018084,0.03353545170269459,-0.24998899053963436,0.02325090277264518,-0.024646905939927855,-0.40164827652897145,-0.023813487270894287,-0.06465116054790339,-0.0016208154500393164,-0.39665846059849047,-0.29482238224890106,0.04714677961316749,0.04942654841263313,0.02086124082698703,0.04226275702585099,0.03228459541960278,-0.24858930655235978,-0.023474295356541164,-0.02588039791431086,-0.4011594030477271,0.024557015654485145,-0.32469217508725096,-0.03241512358816327,-0.0782391844673734,0.08069916133921724,-0.031938677300435356,-0.07855184627732296,-0.08081838355392729,-0.5241775052169826,0.32914661574701864,0.9422563813411391,0.22102679998249852,0.008398453047501071,-0.016128274194675243,-1.0235063815654817,0.32727260846003275,-0.019967651236328265,0.013819114020150637,-0.027526345209902672,-0.031569404799386226,-0.08034387508757614,-0.008119786527722281,-0.029635624600168883,0.020736995088707896,-0.016920952793601868,1.215185769257049,0.0206403842415278,-0.02114407509971707,-2.633112584048538,-1.4873452286628552,-0.06604740421221938,0.04697762281633789,-0.1269708744698835,0.052025167998847155,-0.2267455794459369,0.028788752376065693,-0.020452585160025273,0.02467640728128708,0.008323564300865796,-2.0488120396219336,0.0009673168023163273,0.002376577869167666,0.00037676017171855286,0.02224687522597359,-0.014009032245262782,-0.005859919895174414,-0.10254634564717496,-0.00019628909947814872,0.9638198160495443,nan,nan,nan,nan,nan,nan
26,0.13500000000000004,Standing,-0.03288518333322183,0.9620324538411666,0.2352104988443452,-0.09526747000093198,-0.0014377731402742042,-0.39633846270437356,-0.31506219591527074,-0.018583096844621932,0.04787718873653971,0.01988342444355685,0.04067758902835629,0.03347137876044007,-0.25042144033565683,0.023202446336611462,-0.024795909311577616,-0.4015457651338218,-0.023895265638961535,-0.057724041983582636,-0.0015240051459608074,-0.3967586851180679,-0.3071572487168623,0.03962625170642989,0.04912754116381791,0.021090434823069482,0.04164903527673245,0.032555096404693736,-0.24965629737017456,-0.023337484559096996,-0.025977017645374738,-0.4010442865637581,0.02459634679345784,-0.3338024440946699,-0.032376365168572875,-0.07825117798242143,0.08070927362984161,-0.0318118589895496,-0.0786331168518241,-0.0808513954152636,-0.5318901489452666,0.2909508507760841,0.7265406644235404,0.49507805303470037,0.00820809372373955,-0.017009969723733802,-1.0770442889118985,0.3900356858516891,-0.02035177693032258,0.01790831672996594,-0.037537456732358615,-0.012814588450904857,-0.08648995920449762,-0.00969128720674358,-0.029800674329952,0.02050227902992711,-0.016355673613449875,1.3854237128641504,0.019362060815701805,-0.020044903915486304,-2.466973293592243,-1.5041055813475201,-0.05980144976304447,0.045838799216490304,-0.12274434982370849,0.05410019701819112,-0.2133981635629559,0.02736215948883318,-0.01932394621277556,0.02302329679379923,0.007866227794538784,-1.8220538014837937,0.007751683918079724,-0.0023987030096063733,0.0020224581248725437,0.025363662177150657,-0.01625411490022659,-0.006602372267261826,-0.10353823407656826,-0.0001965651652052844,0.9651708130169381,nan,nan,nan,nan,nan,nan
27,0.14000000000000004,Standing,-0.03556790589283253,0.9633028483174265,0.23804154204938344,-0.09194685533485403,-0.0013990007987414283,-0.39642306883589296,-0.3203586839357161,-0.01643589799198581,0.04778207435079739,0.01998846318360985,0.04045010931148672,0.03349865455572723,-0.2508544601633395,0.023149790396681403,-0.024942453584157965,-0.4014477728331674,-0.023972288442681924,-0.05033764416638882,-0.0014348171270839145,-0.3968530859568052,-0.3185469888614315,0.03245161442625815,0.04886179303173451,0.021309557855606884,0.04107341361481782,0.032808068402147304,-0.25064530667322443,-0.023210388290336385,-0.026067759828219957,-0.4009378866305052,0.024633276966827784,-0.3420614532553507,-0.032306578243059325,-0.07828526784789915,0.08072682910794748,-0.03167386036751357,-0.07872228640174252,-0.08088691611908372,-0.5365445119221395,0.25407889525197225,0.5662086410076463,0.664122933215592,0.007754468306555171,-0.016921226303882014,-1.0592976040890671,0.42943977052722443,-0.01902287714846387,0.02100774801059982,-0.04549594337391369,0.005455159057432768,-0.0866039655365314,-0.010531187986011981,-0.02930885451606998,0.019598460130876193,-0.015404560744077393,1.4772795634387628,0.01783760377537859,-0.018880167747455774,-2.27794802891385,-1.4349274560343477,-0.05314962641667865,0.043824606507480594,-0.11512433238292685,0.05059439949071426,-0.19780186060997915,0.025419253752121975,-0.01814843656904416,0.021279986650582332,0.007386034673988791,-1.6518018321361543,0.013957385102710409,-0.006817973095542816,0.0035110956211753057,0.027599724407205477,-0.017833909983683872,-0.0071041407640253604,-0.10457084038587458,-0.0001968212658483132,0.9664251636586615,nan,nan,nan,nan,nan,nan
28,0.14500000000000005,Standing,-0.038263282962882825,0.9644004213416391,0.24037188524135122,-0.08823019408148834,-0.0013630726971241942,-0.3965053459195569,-0.3253956611018473,-0.014153693000290422,0.04769738581882133,0.02010394862987824,0.04020540754675078,0.033578783022698865,-0.2512721241924833,0.02309659229726241,-0.025084275784780345,-0.4013559150074099,-0.02404392690715754,-0.04293082479324659,-0.0013546162155125946,-0.3969405686390421,-0.32880349161098477,0.025885886197633746,0.048633053225491954,0.021515111521054425,0.04054983596244884,0.033027314837863656,-0.25153979851926894,-0.02309569114003686,-0.026153132748756223,-0.4008408758718851,0.02466785411719904,-0.3497868749147858,-0.032211190201241795,-0.07833783757667732,0.08075047099386898,-0.03152942966847215,-0.0788158226628248,-0.08092369836407838,-0.53907541401006,0.21951460484251292,0.4660686383935601,0.7433322506731364,0.007185620323446843,-0.01645541673278931,-1.0073954332262427,0.4564409983390775,-0.016937706395212353,0.023097089253677896,-0.04894035294718861,0.01602569339432612,-0.0835328058287581,-0.010639619883798157,-0.028364440124475674,0.01837156515149549,-0.014327692895123307,1.4813638746284454,0.016040182314263976,-0.017496536447381236,-2.051300549910655,-1.3131456457248807,-0.045747961248510945,0.04111073308950834,-0.10471553047379571,0.04384928714327091,-0.1788983692089057,0.02293943005990523,-0.017074584107253408,0.01940215172402747,0.006915430074251565,-1.5450843318870113,0.019077608363505864,-0.010513945755637006,0.004728377184299751,0.02888613980828442,-0.018707252216458237,-0.007356448998932633,-0.1056423415921131,-0.00019705358053943078,0.967563642184233,nan,nan,nan,nan,nan,nan
29,0.15000000000000005,Standing,-0.04096479827598947,0.9653375432099309,0.24247870532103866,-0.08446187553125764,-0.0013298782668896213,-0.396585016822363,-0.3301386445256315,-0.011752943026788507,0.047623216442019466,0.020225622041524366,0.039966106642902545,0.0336663508229188,-0.2516696022589665,0.02304552288838497,-0.02521974054023804,-0.4012706132992786,-0.024110229159992554,-0.035912436547623654,-0.0012846685313671106,-0.3970197395580332,-0.337726645851978,0.019983672607620212,0.04844529770892241,0.021704390679221267,0.04008953789806703,0.03320381387887321,-0.2523222945365075,-0.022995876068407948,-0.026234015735705427,-0.4007539217665502,0.024700257995914358,-0.3572771718796773,-0.03209747574852281,-0.07840401240486206,0.08077843222411779,-0.031383093550688954,-0.07891047752135251,-0.08096060287753586,-0.5403030626213299,0.18742437365837022,0.42136401593748485,0.7536637100461415,0.006638886046914553,-0.01593418056122402,-0.9485966847568408,0.4801499947003829,-0.014833875360373693,0.02433468232922536,-0.04786018076964744,0.017513560043986947,-0.07949561329664571,-0.010213881775488334,-0.02709295109153908,0.017060341626265636,-0.013260450567002788,1.4036776491245873,0.013989536829096837,-0.01583418379821956,-1.7846308481986408,-1.1804427180027068,-0.037551103313909,0.0378558316333685,-0.09205961287636209,0.03529980820191064,-0.15649920344771387,0.01996301432578193,-0.016176597389840664,0.01739082106697153,0.006480775743063331,-1.4980593929783026,0.022742890543797738,-0.013234965636945078,0.005592246049763093,0.0292672235566398,-0.01893097170554259,-0.0073809026914947035,-0.10675007843943254,-0.00019725879019159858,0.9685697346261009,nan,nan,nan,nan,nan,nan
30,0.15500000000000005,Standing,-0.04366787495170702,0.9661240175406262,0.2445716313226252,-0.08090684405467803,-0.001299512672746161,-0.3966614099553268,-0.33453964065942776,-0.00924788546817217,0.04755993226017675,0.020349760031389424,0.03974505521542891,0.03373818485284393,-0.25204156407646755,0.022998268913813055,-0.025348218695526226,-0.40119189078747436,-0.024171637021301134,-0.029588346227511306,-0.0012259570610413072,-0.3970892455787781,-0.345158571993417,0.014630084331863708,0.048301452180770095,0.021875538824265423,0.03970014611821584,0.0333342188992191,-0.2529785636625037,-0.02291279672577388,-0.02631135751406328,-0.40067746092241596,0.024730761020980815,-0.36475834516590067,-0.03197243431779337,-0.07847904843104551,0.08080903253731218,-0.031238737889359366,-0.0790035818666374,-0.08099669580493536,-0.5406153351435102,0.15729486613904273,0.41858520031730445,0.7110062953159231,0.006073118828692083,-0.015278626592750442,-0.8801992267592529,0.5010115117232674,-0.012656836368543966,0.024827597973011463,-0.04421028549472635,0.014366805985026843,-0.07439236350020434,-0.009450794914382811,-0.025695631057637225,0.0157445023608529,-0.012281572261715818,1.2648180640224695,0.011742294065160662,-0.013901204148976332,-1.4863852282878023,-1.070717655151301,-0.02876910563046347,0.03422962900883142,-0.07787835597023847,0.02608100406917835,-0.13125382519924414,0.016615868526813647,-0.015468355671570249,0.01529216882684948,0.006100605013291661,-1.4962346572446827,0.025008286145887737,-0.015007205236691717,0.006120062638879772,0.02887113226591719,-0.01862086905697843,-0.007218585479901893,-0.1078910975170299,-0.00019743411096771158,0.9694298142286321,nan,nan,nan,nan,nan,nan
31,0.16000000000000006,Standing,-0.04636969438877681,0.9667609386189494,0.24675042036762887,-0.07768746142013827,-0.0012719158573112081,-0.3967339885358269,-0.33858366648460114,-0.006620474779704894,0.04750707181006066,0.020473377015866375,0.03954840927801252,0.03378371390704598,-0.25238561551586297,0.022955584793142827,-0.025469440677356327,-0.40111943508581444,-0.024228701758310472,-0.02409231697794803,-0.0011789645052381955,-0.39714818621352643,-0.3510464608392737,0.009824799807539714,0.04820206847974329,0.022027580657270986,0.039384995670101515,0.033418592789739764,-0.2535028462931026,-0.022847156212544076,-0.026385758904560026,-0.4006114669371151,0.02475965010945486,-0.37233652477470025,-0.03184205032486292,-0.0785589741491634,0.08084088094019257,-0.031099414128507172,-0.0790932242260049,-0.0810313030614502,-0.5403638874139586,0.1273842156646489,0.4357578090007383,0.6438765269079519,0.005519363086990549,-0.014515716100029922,-0.808805165034679,0.5254821376934552,-0.010572090023216575,0.02472339689539053,-0.039329187483278655,0.009105810840409047,-0.06881028787908003,-0.008536824134045445,-0.024244396366020503,0.014491140331980982,-0.011412947401867816,1.099205849912655,0.009398511160622333,-0.011788126949668154,-1.1775777691713463,-0.9610569048647988,-0.019876740205361728,0.030408366601112635,-0.06303008962286474,0.01687477810413257,-0.10485652611978098,0.013128102645960992,-0.014880278099349355,0.013198797060173517,0.0057778176948090525,-1.5156359217599176,0.026076798586089498,-0.01598514362357611,0.006369680576076219,0.027864752170438618,-0.01792847187349889,-0.0069214513029692264,-0.10906290897976538,-0.00019757737351497185,0.9701333801166907,nan,nan,nan,nan,nan,nan
32,0.16500000000000006,Standing,-0.049068494766000656,0.9672432530256124,0.24903507641303274,-0.07482876262397896,-0.001246988189929252,-0.39680227623321407,-0.3422690434093115,-0.0038321673845968765,0.04746391989130012,0.02059420927990659,0.039377565830499534,0.03380153208810637,-0.25270074069402754,0.022917638175294585,-0.02558341439269021,-0.40105278883153733,-0.024281961827572994,-0.019436845548354984,-0.0011441861859344616,-0.3971955768001315,-0.35539657140329195,0.0060666840064989985,0.04814682655736746,0.022159960200833946,0.039144973754885716,0.03345897161682311,-0.25389473714391175,-0.022798924709471792,-0.026457641862468153,-0.4005556456829067,0.024787182699177138,-0.3800305647868562,-0.03171083388333274,-0.07864079856870505,0.08087295380716703,-0.030967104788100663,-0.07917825075709944,-0.08106402827982231,-0.5397600754447693,0.0964628813326126,0.45693120908077417,0.5717397592318634,0.00498553347639121,-0.01365753947742973,-0.7370753849420819,0.5576614790216035,-0.008630383752108946,0.024166452808042613,-0.034168689502598056,0.003563636212078781,-0.06302503563290915,-0.007589323569648144,-0.022794743066776556,0.013329250855417016,-0.01065201385250426,0.9310942859186091,0.00695566386074679,-0.009478117321013616,-0.8700221128036513,-0.751623160208143,-0.011048384475165322,0.026475908712591992,-0.048004383043159314,0.008075765416669831,-0.07837817016183042,0.009646300614457114,-0.01437659158162561,0.01116425084168099,0.005506517944455402,-1.5388080024311928,0.026243288306034836,-0.01636488390833151,0.006414573394892361,0.026461868081301694,-0.01700530621890846,-0.006545043674421925,-0.11026322228304788,-0.0001976867446349456,0.9706715606889865,nan,nan,nan,nan,nan,nan
33,0.17000000000000007,Standing,-0.051765070987355374,0.9675719703794959,0.2514592371059846,-0.07232833472093494,-0.0012240719464653115,-0.39686613723776587,-0.3456801901501708,-0.0008077074179907457,0.04742760376913799,0.020711041801352418,0.03922910955616741,0.03379511062695562,-0.2529928862182584,0.022883556812037888,-0.025689927887245886,-0.40099115248149064,-0.024331813421074128,-0.015645012085146466,-0.0011214615025716198,-0.3972311880312959,-0.35821650068135186,0.003468220165300563,0.04813485145000878,0.02227309004629548,0.038979413529375166,0.03345883625498692,-0.2541542311148897,-0.022767983802132012,-0.026527423523397806,-0.4005097802335499,0.0248135189751729,-0.38788038399647645,-0.03158184969830994,-0.078722398467378,0.0809045573798044,-0.03084279455285809,-0.07925809337885921,-0.08109470265736354,-0.5393152442709436,0.06574347077670378,0.4848321385903748,0.5000855806088021,0.004583248692788141,-0.012772200910363376,-0.6822293481718634,0.6048919933212261,-0.007263224432425748,0.02336650428916567,-0.02969125486642545,-0.0012842922301495056,-0.05842910484617207,-0.006816272651339583,-0.021302698911135218,0.012327270009342629,-0.009970318700226959,0.7583666926417039,0.004544936672568374,-0.0071222462328796796,-0.5639858556119848,-0.5196927682396871,-0.002395021471735828,0.022625969092306707,-0.033112045102109584,-2.707236723806239e-05,-0.05189879419559109,0.0061881814679562675,-0.013956332185930625,0.009173089871362616,0.005267255199152762,-1.5699638419240536,0.02579683700456023,-0.016319979734589176,0.006320714527473524,0.024862047048514566,-0.015968524351951688,-0.0061348755082448105,-0.1114897683224441,-0.0001977607977164426,0.9710374501837392,nan,nan,nan,nan,nan,nan
34,0.17500000000000007,Standing,-0.05445880211853221,0.9677424766901257,0.25401837938462085,-0.07019533955941516,-0.0012033509845728286,-0.39692524723370914,-0.3487846750371531,0.002507829816073134,0.04739834043863793,0.020822638097680653,0.039101230130472515,0.03377040788023934,-0.2532594281480211,0.022853360019690235,-0.025789571658659485,-0.40093414682390327,-0.02437868061921114,-0.012683357395235798,-0.0011102517556087343,-0.3972552721634423,-0.3595556668448058,0.001998580818203391,0.04816424135396257,0.022367894733442407,0.038886129941523864,0.03342176955394006,-0.25428487671322936,-0.02275379635120082,-0.026595434605980527,-0.4004734518209678,0.024838805561634068,-0.3958797823073472,-0.03145703670516769,-0.07880230247637855,0.0809352390078011,-0.03072684585532354,-0.079332542791094,-0.08112328940992888,-0.5387462262353679,0.03410126212595131,0.5118284557272517,0.42659903230395696,0.004144192378496584,-0.011821999188651346,-0.6208969773964559,0.6631074468127759,-0.005852666100011614,0.022319259265646974,-0.02557588513897801,-0.004940549343256091,-0.05330838595254478,-0.006039358469530685,-0.01992875428271976,0.011401131517478883,-0.009373439627402644,0.5923309379821337,0.002241949392577103,-0.004816826429271412,-0.2678332326907836,-0.2939278694194344,0.005877980790757681,0.01896093742938514,-0.018656717570260148,-0.007413340209371885,-0.02612911966792561,0.0028374901862384476,-0.013602216516544021,0.007265682516418852,0.005057317292233355,-1.5998796621741518,0.024962598628450818,-0.015980801800112424,0.006136325599339968,0.023189739506909796,-0.014889882446958793,-0.005717350513066784,-0.1127403414318371,-0.0001977990946279094,0.9712291093479323,nan,nan,nan,nan,nan,nan
35,0.18000000000000008,Standing,-0.05714978224352623,0.9677496460907108,0.2566922007321578,-0.06841658476533899,-0.0011849522193795431,-0.39697939389354253,-0.3515612392551775,0.0061659802430111535,0.04737627574149634,0.020928096223081477,0.03899220590347873,0.033732633970553684,-0.25349849432594196,0.02282701603653692,-0.02588288696873577,-0.40088143795751546,-0.024422893417924356,-0.01049002356222617,-0.0011097456324579598,-0.39726846110128755,-0.35949163990730243,0.0014701721954768522,0.04823242632520952,0.022445631860133385,0.03886175574954082,0.03335146145117093,-0.25429276509588855,-0.02275552040778986,-0.026661968914275025,-0.40044608043587954,0.024863197334496136,-0.40400653721236296,-0.031337620106775696,-0.07887952266845821,0.08096471025162892,-0.030619186858166562,-0.07940166377650895,-0.08114984738253417,-0.538196024998804,0.001433880117026623,0.53476426950739,0.35575095881523466,0.0036797530386570992,-0.01082933196667396,-0.5553128436048873,0.7316300853876039,-0.004412939428318219,0.021091625080164607,-0.02180484539875728,-0.00755478193713222,-0.04781323558417573,-0.005268796630662424,-0.01866306201525663,0.010541773277565756,-0.008842559742643134,0.4386667666019257,0.00010122463015487925,-0.0026377875690502084,0.01280538750066934,-0.10568172454530775,0.013636994249389845,0.015547425338195713,-0.004874838396608669,-0.014061620553824712,-0.0015776765318435346,-0.0003448113178077098,-0.01330686165889969,0.005474277017643672,0.004878354572413839,-1.6253509810031448,0.023883319678398986,-0.015444038415932337,0.005894248765565054,0.02153179943139551,-0.013824197082989122,-0.005311594521056001,-0.11401368305987947,-0.0001978006788917375,0.971241860602583,nan,nan,nan,nan,nan,nan
36,0.18500000000000008,Standing,-0.05983868432547334,0.9675875477983751,0.2594443989989067,-0.06695633235574418,-0.001168945244422816,-0.39702847163343996,-0.35399862077518884,0.010217017122411121,0.047361444109864606,0.02102680286540517,0.03890038344742238,0.03368625616687064,-0.2537089700079873,0.022804440963335754,-0.025970357015224828,-0.40083273255844054,-0.024464709406242652,-0.00897479641367958,-0.0011189805853137618,-0.39727162852182907,-0.3581332008947594,0.0016543238845398644,0.04833622081967946,0.02250769929724641,0.038901910378342744,0.0332514146230934,-0.2541867905282392,-0.022771984797994693,-0.026727246295206744,-0.4004269091776515,0.02488685436483759,-0.4122219328070451,-0.031224475581889538,-0.07895333877110904,0.08099276178289144,-0.030519465621073005,-0.07946569678446294,-0.08117449332410787,-0.5377804163894223,-0.03241965846714132,0.5504396533497726,0.29205048191896277,0.003201394991345437,-0.00981554797948472,-0.48747630400226805,0.8102073758799934,-0.0029663263263468753,0.019741328464738455,-0.018364491211270553,-0.009275560736608908,-0.042095136409065176,-0.004515014640233741,-0.017494009297811402,0.00974107981498894,-0.008363197663659193,0.30304542970931775,-0.001846990571160394,-0.0006334841083010735,0.27168780250860136,0.03683033781260245,0.020758898893988093,0.012413487422605108,0.00803092576038348,-0.020009365615506435,0.021194913529869425,-0.003292878040966659,-0.013055476186344053,0.003834251645602336,0.004731406068291135,-1.6430791189364287,0.022628904977231346,-0.014763220530164465,0.005610306252503113,0.019944247418711435,-0.012806601590798385,-0.004929188314740616,-0.11530897200584264,-0.00019776480241247396,0.9710719901413274,nan,nan,nan,nan,nan,nan
37,0.19000000000000009,Standing,-0.06252670058639845,0.967249391353776,0.2622239835107621,-0.06575601492718461,-0.0011553146282125835,-0.3970725238654928,-0.35609846108072407,0.01471129434919189,0.04735364748324306,0.021118415804827324,0.03882438827592107,0.03363436398331478,-0.2538907864516842,0.022785494392266306,-0.026052386876867065,-0.400787754316558,-0.024504327949628587,-0.00802235900990209,-0.0011368764579736794,-0.3972658274915543,-0.355617652202471,0.002341879185270058,0.04847187775039038,0.022555572105335205,0.03900120681055364,0.03312505805789194,-0.2539784316573764,-0.022801707693276732,-0.026791381736562602,-0.4004150364723574,0.02490992157871714,-0.42047217117477703,-0.031118308969842603,-0.07902319024790368,0.08101922286161861,-0.03042715294494784,-0.0795249910813101,-0.08119737735376868,-0.5376032521850217,-0.06763128891982842,0.5559169023710765,0.24006348571191255,0.002726123242046495,-0.008810446410566677,-0.4199680611070451,0.8988554453561536,-0.001559325324309293,0.018322587884431217,-0.01519903430026102,-0.010378436711173125,-0.03636328873937775,-0.003789314213889202,-0.01640597232844778,0.0089956483765041,-0.007923708677186826,0.19048748075549807,-0.003579174531983524,0.0011602060549515236,0.5031097384576864,0.1375110601460387,0.02713138614218325,0.009574561617758702,0.019859286442179783,-0.025271313040292814,0.04167177417257033,-0.0059445790564076825,-0.012827088271171764,0.002374541058820323,0.004613442775910232,-1.650047673546379,0.021233322409386975,-0.01397029535892933,0.0052922157454332675,0.018462535225032887,-0.01185885936943132,-0.004576805932162406,-0.11662575684001164,-0.00019769089955280666,0.9707166274609339,nan,nan,nan,nan,nan,nan
38,0.1950000000000001,Standing,-0.06521450287745613,0.966729631804362,0.2649859135993842,-0.06476538708373378,-0.0011441706100479407,-0.3971115907496098,-0.3578534506994861,0.019669094035558277,0.04735298904756212,0.02120274993302782,0.038763650648693304,0.0335787595583632,-0.2540431990038669,0.02277017700408497,-0.02612951155110653,-0.400746272522962,-0.02454192423396603,-0.007582036535696954,-0.0011632757823203394,-0.3972517102358306,-0.3516344725967699,0.0008677098008913859,0.04864494608778535,0.022590399016392336,0.03916377374893626,0.0329768507209034,-0.25364361092886245,-0.02284740510589777,-0.02685700172632657,-0.4004112129429265,0.024932950042182857,-0.4287091591487088,-0.0310194133573215,-0.07908864439149278,0.08104397752802281,-0.030341444707167355,-0.07957989972288024,-0.08121866626221703,-0.5375604582115352,-0.10395190988279066,0.5523860177244274,0.19812556869016548,0.002228803632928554,-0.00781337682340101,-0.35099792375240313,0.9915599372732774,-0.0001316871361890814,0.01686682564009966,-0.012147525445553298,-0.01112088499031485,-0.030482510436541127,-0.0030634776362668723,-0.01542493484789284,0.008296358719192706,-0.0075192568674886506,0.08806449484102703,-0.00527986486933201,0.0028234511447361743,0.7966359211402262,-0.29483387687573437,0.03461366747899399,0.006965382211426393,0.03251338767652302,-0.029641467397708152,0.06696414570278063,-0.009139482524207715,-0.013123997952793868,0.0007647058861852884,0.004605692693143098,-1.6473975947863455,0.019779122504220446,-0.013090828717821967,0.00495093328084079,0.01714164755609747,-0.010981728314026601,-0.004257781689669678,-0.11796388600069961,-0.00019757856327124373,0.9701736384730049,nan,nan,nan,nan,nan,nan
39,0.2000000000000001,Standing,-0.0679033241845792,0.9660149892700921,0.2676303570027241,-0.06386172560857174,-0.0011354476531962312,-0.3971458142404528,-0.3592414411742737,0.024980645736256614,0.04735988952522586,0.021279766313769932,0.038718426029857915,0.03352011266986943,-0.25416438285838355,0.022758675067434852,-0.02620214620252154,-0.40070823980138914,-0.024577647882158476,-0.007441139771542683,-0.0011986649228748884,-0.39722875384652884,-0.3464938573923521,-0.0014888461755246634,0.04885122410739561,0.022611699971842203,0.03938525738014121,0.03280423657185975,-0.25320713075839507,-0.022906186641654384,-0.02692352615642012,-0.4004136172442851,0.02495620390370453,-0.4368248675568182,-0.03092814079137404,-0.07914958850589197,0.08106697602949987,-0.030261889901264702,-0.07963084949328898,-0.08123850703933884,-0.5377642614246151,-0.14292850685396868,0.5288886806679731,0.18073229503240665,0.0017445913703418997,-0.006844698168605395,-0.2775980949575212,1.0623103401396674,0.0013800955327477305,0.015403276148422192,-0.009044923767077967,-0.01172937769875464,-0.02423677090333081,-0.002300387330023795,-0.014526930283002315,0.007606544314570359,-0.007144729638489124,0.028179352830854112,-0.007077828110909795,0.004591277860357533,1.0281230408835595,-0.47131119528320986,0.041255603922052395,0.004260191089973732,0.044296726240989695,-0.034522829808730705,0.08729603409347655,-0.011756307151322417,-0.013304886018710129,-0.00048086027171876603,0.00465077230433512,-1.6231416816218858,0.01825451318949254,-0.012188822879838624,0.004599700295413558,0.015910961180530654,-0.0101899540817494,-0.003968155424360733,-0.11931943944415928,-0.0001974266170288353,0.9694376131155235,nan,nan,nan,nan,nan,nan
40,0.2050000000000001,Standing,-0.07059499694617534,0.9650966433950172,0.2700835454228655,-0.0629538881210377,-0.0011293222094788103,-0.3971751399575468,-0.3602232181845062,0.030504287011330535,0.04737542059006685,0.021349419085374383,0.03868998462750354,0.03345813700228551,-0.2542511160668704,0.02275138110374144,-0.026270475638808022,-0.40067393145020297,-0.024611416918899637,-0.0074401310564738785,-0.0012418758490040246,-0.39719809832834135,-0.3403975448828139,-0.004521143494007137,0.049086114509204984,0.022620615740591557,0.0396584052997389,0.032610757724420444,-0.25268579909483135,-0.022975900970512515,-0.02699050437444539,-0.40042123410335084,0.024979631374316212,-0.44474213902976545,-0.030844345627067577,-0.07920609597913676,0.08108825274252773,-0.030187863997525044,-0.07967824489067277,-0.08125705244510376,-0.5383345523192289,-0.18366917501497726,0.49063768402828706,0.18156749750680873,0.0012250887434841712,-0.0058651434187911924,-0.19635540204649998,1.1047282550147843,0.0031062129681984794,0.013930554320889976,-0.005688280470875435,-0.012395133516783901,-0.017346641697364596,-0.001458792738682665,-0.013665887257296023,0.006861670237235929,-0.0067538073482321945,0.00020174301376099657,-0.008642185225827242,0.006131103637491301,1.2192625019076513,-0.6064594636964948,0.04697808036187451,0.0017831537498710103,0.054629583919538684,-0.03869576948786034,0.1042663327127381,-0.013942865771625774,-0.013395643605053893,-0.0015233718131548747,0.004685494122336335,-1.58345429458945,0.016759032861292225,-0.011301494648956743,0.00425534260557236,0.014805180747931896,-0.009479079476756316,-0.0037090811529836075,-0.12069182526442787,-0.00019723481671172333,0.9685069332446211,nan,nan,nan,nan,nan,nan
41,0.2100000000000001,Standing,-0.07329153007734075,0.9639637932174822,0.27225671730433953,-0.061922098132899284,-0.00112580909713805,-0.3971996271243531,-0.3608023427824738,0.03619522821056229,0.04739980975392996,0.021411809395632652,0.03867896490415968,0.03339187503443668,-0.25430347850472884,0.022748326957924322,-0.026334222694806706,-0.4006436371904952,-0.024642981989706842,-0.007389371788176273,-0.001291587058094727,-0.39716108601030625,-0.3336036112647742,-0.007495966062013422,0.0493435147895555,0.02261835147650007,0.03997456933522245,0.03239894993451446,-0.252101422725137,-0.02305384357628361,-0.027057048523963102,-0.4004329073154183,0.025003039662717375,-0.4523676581346516,-0.030767672314416666,-0.07925843802047149,0.08110790474895098,-0.03011927894006718,-0.07972222250998506,-0.08127432985509304,-0.5393066262330813,-0.2265700355070081,0.4346343762948104,0.2063579976276818,0.000702622468152066,-0.004897433361262709,-0.11582491959352274,1.1381882398463514,0.004877832772622556,0.01247806205165397,-0.0022039446687715115,-0.013252393569766348,-0.010472487571691232,-0.0006108291634238058,-0.012749411199736715,0.00605885194155025,-0.0063130141614410554,0.010151853659521046,-0.009942241818140482,0.007402463607018833,1.3587867236079298,-0.5949645136012568,0.051480056070103586,-0.00045285281829749455,0.06323280709670993,-0.0423615579811971,0.11687527393886651,-0.015588521154218892,-0.013308829903542757,-0.002334642413488337,0.004681657680232452,-1.5251038209772234,0.0153346625301823,-0.010468408266944697,0.0039304012846500475,0.013717011491573044,-0.00879552386245933,-0.00345548199785852,-0.12208036513138246,-0.00019700297317264283,0.9673803260966346,nan,nan,nan,nan,nan,nan
42,0.2150000000000001,Standing,-0.07599517347556208,0.9626073780624054,0.2740731151920154,-0.06065594982398899,-0.0011247904988319541,-0.39721945811778664,-0.36101478026217837,0.042117972627536866,0.04743254723146647,0.021467232411863234,0.03868503760793685,0.03332055798585609,-0.25432420412241286,0.02274922197784597,-0.026392928007549443,-0.4006175518411748,-0.02467204112591664,-0.007119890849044083,-0.0013461041855485011,-0.3971194159895113,-0.32634371763750636,-0.009848641388522893,0.04961700153631366,0.022606532301371166,0.040324088157562984,0.03217277567321015,-0.25147399154406963,-0.023137476727664755,-0.027122287190780192,-0.40044767880461973,0.025026152567086398,-0.45962224861541656,-0.03069740760817722,-0.07930708144272547,0.08112610679949885,-0.030055976224267755,-0.07976293121762924,-0.0812903744551631,-0.5407286796442633,-0.2712830310153601,0.36327957753516626,0.2532296617820593,0.00020371966121918,-0.003966198686707207,-0.04248749594091278,1.1845488833949145,0.006547495507301946,0.011084603246116417,0.001214540755434419,-0.014263409716116381,-0.004145123536801636,0.0001790039843293801,-0.011741062548547756,0.0052170698640790405,-0.005811827241959866,0.053896187826437986,-0.010903425490754811,0.00833400415899753,1.4519787254535719,-0.4705350653018943,0.054697349351631265,-0.002363835025781155,0.06990376446810764,-0.04523485226086264,0.1254862362134769,-0.016726630276229525,-0.013047733363418289,-0.0029542978402834464,0.0046225808738046435,-1.4509180961529928,0.01405294124788946,-0.009728684450795817,0.0036404101095720443,0.01266054315988455,-0.008141741528837194,-0.003208920014010571,-0.12348462484138086,-0.00019673101155348322,0.9660570231158394,nan,nan,nan,nan,nan,nan
43,0.2200000000000001,Standing,-0.07870829662452512,0.9610205381822283,0.27547344214572955,-0.0590641885522811,-0.0011260064477036905,-0.3972349616382284,-0.3609182417927921,0.04842198030490813,0.047472523959643534,0.02151619225453187,0.03870693787424757,0.03324384441398415,-0.25431791235038204,0.022753534799865294,-0.026446120494246755,-0.40059572992779297,-0.02469831910695882,-0.0064910130075338515,-0.0014037002114236832,-0.3970748069934906,-0.3188219626162419,-0.011133894369335129,0.049900329463912686,0.022586913413031585,0.040697315479819,0.03193649533765354,-0.25082140263837344,-0.023224503495504093,-0.02718546780961793,-0.40046471307529397,0.02504869539847688,-0.46644654820418135,-0.03063256557996124,-0.07935263209298939,0.0811430906426308,-0.0299975669397893,-0.0798006257515699,-0.08130527009102609,-0.5426246297926093,-0.3173679760354055,0.28006539074283643,0.3183522543415784,-0.00024318977434724718,-0.0031007040883506256,0.019307693877262173,1.2608015354742532,0.007995345635413476,0.009791968533727383,0.00438005326214275,-0.015342714374388371,0.001258354406169131,0.0008625644038643724,-0.010638497339462268,0.004364382676372618,-0.005255596208435845,0.12577556830204623,-0.0115192051750364,0.008921799204129667,1.5043510042528894,-0.25705059616244724,0.056665585519805405,-0.003923777667916121,0.07464546445120326,-0.047256067111321305,0.1305177811392397,-0.017405353567867394,-0.012636123767547226,-0.0034068541348436844,0.004508566278096515,-1.3648599177529563,0.012968405643195999,-0.009110130052782313,0.0033967686263894183,0.01168185689569128,-0.007538906788131067,-0.0029791271725987775,-0.12490452900991664,-0.00019641895987344707,0.9645368239846364,nan,nan,nan,nan,nan,nan
44,0.22500000000000012,Standing,-0.08143372114120896,0.9592014486445302,0.27643280029358186,-0.05710484064532917,-0.0011292634380800943,-0.39724634601495407,-0.36054682510114255,0.055226959449564225,0.047519070534856156,0.02155926429815348,0.038743484539883036,0.03316198413623673,-0.25428753232230045,0.02276090885225767,-0.026493574378121137,-0.40057824220158583,-0.02472161145749383,-0.00541626165698898,-0.0014627857768957262,-0.3970288352477044,-0.31119007204981336,-0.01118358172086908,0.05018819947002868,0.0225612499158498,0.041085563264409694,0.03169452534025344,-0.250157308862648,-0.023313127944295423,-0.02724614676835174,-0.4004833537394604,0.025070457356376093,-0.4728206525258567,-0.030571922582161983,-0.07939576773229162,0.08115912639342547,-0.02994330037500979,-0.07983571414506684,-0.08131917537869378,-0.5450849033367667,-0.3638179075396264,0.19187162957046405,0.3918695813903854,-0.0006513980752807574,-0.0022768753451349903,0.07428333832991084,1.3609958289312192,0.00930931504252385,0.00861440872432168,0.007309333127093663,-0.016372055549484323,0.00607600561632283,0.0014748104784752109,-0.009490776774876673,0.0034975452414266936,-0.004658470107001378,0.21495027010897427,-0.011817113094408608,0.009194349157252642,1.526378113285713,-0.009937470306790291,0.0575740012231982,-0.005132699436357101,0.07764955691813899,-0.04839399948002048,0.13281875514508762,-0.017724889758266072,-0.012135791746762105,-0.0037281328332904474,0.004352391579842427,-1.2748208643350663,0.012128599559851091,-0.008627127860447672,0.0032071501589335037,0.010853312955901993,-0.007017678699386746,-0.0027810575335368523,-0.12634034245682246,-0.00019606693613633978,0.9628200400624424,nan,nan,nan,nan,nan,nan
45,0.23000000000000012,Standing,-0.08417473134597374,0.9571531190372906,0.2769596113478689,-0.05478377881071686,-0.0011344952645432546,-0.39725368049147197,-0.35990904665678636,0.06261745822203257,0.0475721201284469,0.021596973480935942,0.03879399888796541,0.03307537875235234,-0.25423399959617,0.022771216069965152,-0.026535240990511667,-0.40056522782519516,-0.02474176058927045,-0.003862153099661,-0.0015220545286477188,-0.3969827824662428,-0.303547278747911,-0.010112767598616701,0.05047659061904974,0.022531123442322443,0.041481701167936036,0.03145092977655076,-0.2494909616104193,-0.02340209140112293,-0.027304207792513812,-0.4005031019585594,0.02509132344826536,-0.47876283625843974,-0.03051416116873285,-0.07943717098148781,0.08117449410721563,-0.02989212015531085,-0.0798687434517961,-0.08133231563091113,-0.5482020409529548,-0.40966592144790215,0.10536221085741063,0.46421236692246226,-0.0010463652926320892,-0.0014668953035867841,0.12755568887124302,1.4780997544936707,0.010609918718149439,0.0075418365564923,0.010102869616475288,-0.017321076776877668,0.010706545226088878,0.002061443541496166,-0.008333322478106213,0.0026028752781341665,-0.004029826355324145,0.310821711465596,-0.0118537503503985,0.009210556292313486,1.5285586603804713,0.21416282445047552,0.057678229804211195,-0.006025294705471275,0.07922758070526816,-0.04871911274053554,0.1332694504457319,-0.017792691365501122,-0.011612204832414895,-0.003949643819795694,0.004173218377853825,-1.188436746516611,0.011552282685826597,-0.008280649839236522,0.0030735427580309937,0.010236043939787887,-0.00660586134585507,-0.0026280504434713554,-0.12779268274223332,-0.0001956753008922445,0.9609082254757088,nan,nan,nan,nan,nan,nan
46,0.23500000000000013,Standing,-0.0869357594205209,0.9548850641975316,0.2771082586625327,-0.05216396620441736,-0.0011416638853059997,-0.39725662274337414,-0.358985936552585,0.07059006935645316,0.04763227433228596,0.02162973522363968,0.038858500803637695,0.03298445048965786,-0.2541559843475218,0.022784595115342615,-0.026568665340969255,-0.4005587115357458,-0.0247570841739634,-0.0018610187347932903,-0.0015805694705159972,-0.3969374982496957,-0.29594818927486627,-0.008263328482141397,0.0507628378475578,0.022497817121540472,0.04188037823260129,0.031209116900402945,-0.24882775968858994,-0.023490616375763856,-0.027359819247681445,-0.4005235836083178,0.025111275102967286,-0.48434512945647445,-0.03045798286310491,-0.07947746215781588,0.08118945853485682,-0.029842775738012285,-0.07990034085629447,-0.08134495837242517,-0.5522056149094312,-0.45361096795180433,0.029729462932759215,0.5239625212599006,-0.0014337241525490178,-0.0005884503804287737,0.18462202084027057,1.5945222268841177,0.012030840767811765,0.006552348540747524,0.012900383134456472,-0.018185652538896008,0.015603049729635238,0.002675809075492917,-0.006684870091517246,0.0013032578898742625,-0.0030647169385903616,0.4002268729735419,-0.011702988373655663,0.009056843309413856,1.5198178946089391,0.369887823295061,0.057249445701612445,-0.006661264156394044,0.07973541293305013,-0.048362575229562534,0.13264038436587502,-0.01770499492818545,-0.011122291033526969,-0.004096329951678219,0.003990330940385358,-1.1164586396069376,0.0112356611255879,-0.008058235265615686,0.002992885528239584,0.00986888345971303,-0.0063194808996733035,-0.0025285483028080597,-0.12926247708298708,-0.0001952446332437843,0.9588040518898113,nan,nan,nan,nan,nan,nan
47,0.24000000000000013,Standing,-0.08972374604974545,0.9524279731064859,0.27712496576270124,-0.04950734747873839,-0.0011501310736039042,-0.3972549456601085,-0.3578782112468251,0.07940034728005017,0.047697329777633045,0.021658233320730823,0.038934236095317744,0.03288934539538657,-0.2540613772755013,0.022800105384153443,-0.02658829072947285,-0.4005620074519161,-0.02476429810669725,0.0003137664026721205,-0.0016378521618131252,-0.3968927918670037,-0.28841426011501187,-0.0060805609700627485,0.05104555138444418,0.02246221689268724,0.04227802771092462,0.03097161684502899,-0.24817014448942226,-0.023578305605430422,-0.02741340146370497,-0.4005445021538889,0.025130369875193116,-0.48985784838913105,-0.030402423114798283,-0.07951689432388499,0.08120416808606826,-0.029794525742474102,-0.0799307808665814,-0.08135723856691751,-0.5575973258449121,-0.4914182182091474,0.0033414200337047034,0.5313237451357928,-0.001693437659580898,0.00033541665313023127,0.22154506115197556,1.762055584719402,0.013011089069417059,0.005699619418228227,0.015147058336009059,-0.019021018854258272,0.01892141440409523,0.003102053762165333,-0.00392507770071948,-0.000659183234059511,-0.0014427865467696185,0.4349570274930821,-0.011456538259425577,0.008941276538395939,1.5067858319708816,0.4365535024157296,0.05654270737727638,-0.0071200457706463985,0.07952989566466609,-0.047500011074790426,0.13152303983353647,-0.017537845933312812,-0.010716443204704988,-0.00418370911422077,0.003818954445165765,-1.1025437865313223,0.01111194966132503,-0.007886433213822153,0.002941910242288439,0.009649999107636602,-0.0060880020573866695,-0.002456038898468553,-0.13075093888977804,-0.00019477590030547108,0.956511907307941,nan,nan,nan,nan,nan,nan
48,0.24500000000000013,Standing,-0.09254767697288983,0.9498194859566255,0.2772909841816798,-0.047102448608520954,-0.0011592718482322122,-0.3972485793645513,-0.3566457343482488,0.0891326185428614,0.04776549872563514,0.021683075031213438,0.03901851969190285,0.03279129817379639,-0.25395518003303774,0.022817105135932953,-0.026590300992676803,-0.40057744833379016,-0.024761148204036736,0.0023414612558257815,-0.0016936023864195938,-0.396848621923137,-0.2809350491791355,-0.004260293299569626,0.05132432991273378,0.022424911609976655,0.04267268370567117,0.030740146541226317,-0.24751768441160074,-0.0236651377681694,-0.02746491274663446,-0.40056609730603976,0.025148414542139855,-0.4956353726767937,-0.03034730836427203,-0.079555289395843,0.08121859156195026,-0.029747216601725322,-0.07996005778019832,-0.08136916339505687,-0.5647861846288768,-0.5216974299720838,0.03320368379571079,0.4809797740434873,-0.0018281549256616064,0.001273259111431277,0.2464953797152668,1.946454252562247,0.013633789600418257,0.004968342096522661,0.016856719317020746,-0.019609444318035598,0.021239448492716133,0.0033999503559019994,-0.0004020526407902364,-0.0030881763748075814,0.0006299805321027538,0.4055389706307322,-0.011150044921293727,0.008833988773342837,1.4958421871752785,0.36405353409862445,0.05575570565791972,-0.007461056542117252,0.07893119894931008,-0.04629406076053507,0.13049201556430184,-0.017366432547795494,-0.010302256585897588,-0.004319030430171332,0.0036089333893480494,-1.1555048575325306,0.011022950105251011,-0.007679014391599972,0.0028846951764008645,0.009461828149756069,-0.005855382723385131,-0.0023849656278708445,-0.13226081714590499,-0.00019427091615315786,0.9540403058440324,nan,nan,nan,nan,nan,nan
49,0.2500000000000001,Standing,-0.09541846041242011,0.9470983008992577,0.2778826200126935,-0.045290013140555876,-0.0011698303950107665,-0.3972369664641784,-0.355105576364344,0.09942858920394808,0.04784079956440691,0.02170377440943044,0.03911510122382272,0.03269104302658763,-0.2538235101164712,0.022837200954778956,-0.026574698546004905,-0.4006063658194242,-0.02474725768233057,0.0039884656998087666,-0.0017462886936976034,-0.39680507198782733,-0.27407353107949883,-0.0009510153752255498,0.05158543081331215,0.02238745766508557,0.04304852854856244,0.03051494848780323,-0.24691535972902268,-0.02374575026794843,-0.027503508714981674,-0.4005917103344591,0.025160796571534517,-0.5020112599627462,-0.03029309138240838,-0.07959225008789136,0.08123258877306243,-0.029701195482165196,-0.07998805689793215,-0.08138066682691085,-0.574156687906056,-0.5442370114735544,0.1183271662027322,0.3624870935930149,-0.002111709355710853,0.002322580074583722,0.30803159678096403,2.0591941322173337,0.01506016775435497,0.004139875643400305,0.01931630638397342,-0.020051029441751786,0.026333983313309446,0.0040191637692006885,0.0031204893343794986,-0.005783497126813846,0.0027781043412335644,0.329400888796597,-0.01053726145560191,0.008709987061935563,1.372303619927334,0.6618555848688152,0.05222018011567386,-0.007490788978217132,0.07516896857825416,-0.045039610684617405,0.12046493651561227,-0.016122499955806117,-0.007719193669442653,-0.005122605683870233,0.0024764058789321667,-1.2751774571904981,0.010843396372729406,-0.007392138409672908,0.0027994422224351637,0.00920422391202553,-0.005599823546764424,-0.002300686370796628,-0.13379421347324577,-0.00019373205193194207,0.9514006945233795,nan,nan,nan,nan,nan,nan
50,0.2550000000000001,Standing,-0.09841540715652436,0.9444428888060113,0.27968279000392937,-0.04352581133688229,-0.0011610619697512304,-0.3972314597208702,-0.35591440297699334,0.10920231795052826,0.04785141990931319,0.021734878581460997,0.039148601365507116,0.032594019268396994,-0.2538719706897645,0.022836119063308274,-0.026526585453066416,-0.4006393921223943,-0.024720029085179875,0.004322487274865915,-0.0017952387204279116,-0.39676332636045264,-0.2673770799300459,0.0013021532836367472,0.05183678650614702,0.02235035864810617,0.04341210512637732,0.03030084106564157,-0.246329090841413,-0.023824022645354166,-0.02752889070754546,-0.40062487028852556,0.02516656618956406,-0.5100551045784796,-0.03024106982745184,-0.07962770775770911,0.08124604656854972,-0.02965735616941637,-0.08001476141328608,-0.08139167271842968,-0.5993893488208487,-0.5310824186492746,0.3600339982471819,0.3528403607347176,0.001753685051907213,0.0011013486616407839,-0.16176532252987574,1.9547457493160372,0.0021240689812564023,0.0062208344061113734,0.006700028336880387,-0.01940475163812702,-0.009692114658670911,-0.0002163782941365681,0.009622618587697866,-0.006605260594012519,0.005445719430138783,0.06680431501142964,-0.009790005346061628,0.008349125474934825,1.3392902298905933,0.45063373177245936,0.050271138566975286,-0.007419803395880131,0.0727153155629752,-0.04282148443233151,0.11725377752193462,-0.01565447548114744,-0.005076398512757027,-0.0066319908132846835,0.0011539236059090229,-1.6087689231466786,0.010404310991308167,-0.0070915339635480535,0.0026915590974598306,0.0087678625497657,-0.005340903070785685,-0.002201178303765679,-0.13535849543482326,-0.0001931624388056328,0.9486080763337256,nan,nan,nan,nan,nan,nan
51,0.2600000000000001,Standing,-0.10164172662724942,0.9420537635509987,0.2834441052485854,-0.042151737581989604,-0.0011285266838707924,-0.39723809879395267,-0.35970587356372397,0.11877611811679123,0.04777549629320638,0.02178140544766345,0.03908277594828359,0.032524060811518735,-0.25416063284409884,0.022805714425928436,-0.02644653559122458,-0.40067112050182363,-0.024680667568968667,0.003622621593665848,-0.0018192580210785398,-0.39673546790754527,-0.26349810303779647,-0.001095186071091716,0.051998041104457084,0.022332451516529017,0.04367786155735617,0.030106195907364703,-0.24596337255598308,-0.023875807978638565,-0.02753287098411282,-0.40065178569944465,0.025166536380289328,-0.520863300177757,-0.030191825967295475,-0.07966175188728769,0.0812589435123082,-0.02961726473506038,-0.08003988300087428,-0.081401965909631,-0.6452638941450118,-0.4778250510025361,0.7522630489311968,0.27481475097853747,0.006507057176087615,-0.0013278146164937903,-0.7582941173461263,1.9147600332525927,-0.015184723221361399,0.00930537324049102,-0.013165083444704665,-0.013991691375651642,-0.05773243086686395,-0.006080927475967326,0.016009972368367462,-0.006345675885862141,0.00787230324224136,-0.1399731362400133,-0.0048038601301256525,0.005571690581472274,0.7757953784498788,-0.47946787094569265,0.03225091966201195,-0.003581426315430795,0.05315128619576988,-0.03892903165537345,0.07314365708598586,-0.010357066656879719,-0.0007960553134723292,-0.005383082183813682,-5.9618549462586105e-06,-2.1616391198554763,0.009848772031272879,-0.006808825915717331,0.0025793887516938224,0.008018286871197605,-0.005024317517640566,-0.002058638240266666,-0.13694399023854978,-0.00019258481534955072,0.9457778260761243,nan,nan,nan,nan,nan,nan
52,0.2650000000000001,Standing,-0.10518821170409944,0.9401222628211365,0.28991076194013665,-0.04099882518784291,-0.0010602228120718993,-0.3972676531190859,-0.36792232375617107,0.12665848648620204,0.04756926948603736,0.02185432275837709,0.03886313065083554,0.032496451521043225,-0.254809808278128,0.022731254453923645,-0.02633453256087542,-0.4006909411764913,-0.02463125004975101,0.0013178549814988234,-0.0018229460404409975,-0.39671703916037543,-0.2624059364762585,-0.005491166295364587,0.05206810606405744,0.022331552539777644,0.04383817303101501,0.029940750095592845,-0.2458281939501716,-0.023899344715685663,-0.027509948009073894,-0.40067609245306973,0.025157434578670774,-0.5354916050835372,-0.03014542829333068,-0.07969416426732333,0.08127122082725226,-0.029580964345126505,-0.08006316668144796,-0.08141147875899973,-0.709297015370004,-0.38630014597242845,1.2933313383102503,0.230582478829338,0.013660774359778602,-0.0059108650266453755,-1.643290038489423,1.5764736738821634,-0.041245361433804875,0.014583462142727375,-0.043929059489609845,-0.005521858095102123,-0.12983508680583125,-0.014891994400958434,0.022400606069831807,-0.003964134933535455,0.00988350384353187,-0.4609533224334049,-0.0007376038724915615,0.0036857494339736074,0.21843331230759266,-0.8791960448545744,0.014012991920071906,-0.000179795350274738,0.03206229473176947,-0.03308916235437149,0.027035721162291443,-0.004707347409419948,0.004584595007785585,-0.004861350725020988,-0.0018203603237105029,-2.9256609811560463,0.009279534792958552,-0.0064824760071263005,0.0024554629888110624,0.007260077986775401,-0.004656736114735193,-0.0019025698737448902,-0.13855917099489878,-0.0001920281636253851,0.9430500455754571,nan,nan,nan,nan,nan,nan
53,0.27000000000000013,Standing,-0.10897471722561476,0.9378327821392889,0.2892790846973498,-0.027057978174323063,-0.0009207218630123443,-0.3973544584449454,-0.38492565412491925,0.1337856594498542,0.04711521200207866,0.021977724340439313,0.03833923483561186,0.03256158671670994,-0.25617317077650165,0.022568990765663363,-0.026178133121321646,-0.4006733147806442,-0.02457677411424406,0.010654644964258045,-0.001771111000256799,-0.39673231591337493,-0.2687272024101197,-0.009213335359283988,0.0519086979821691,0.022376559087028052,0.043742287115528786,0.02982018282177273,-0.2462934024987854,-0.023850712701591514,-0.027438879425470415,-0.40067595214738655,0.02513982100853353,-0.5426354932863938,-0.030111533928636174,-0.07973426626098369,0.08128411776570657,-0.029557439503232003,-0.08008831225537255,-0.08142003379379825,-0.7573011043030644,-0.45789613636953375,-0.12633544855737178,2.7881694027039696,0.027900189811910996,-0.01736106517189069,-3.400666073749635,1.4254345927304366,-0.09081149679173936,0.024680316412444572,-0.10477916304473642,0.013027039133343203,-0.27267249967472973,-0.03245273765205648,0.03127988791075476,0.0035252791694093963,0.010895187101389908,1.8673579965518443,0.0103670080368397,-0.0030553505999036555,-1.2642531867722417,-0.7444338127838801,-0.03188161637766926,0.009001309450081601,-0.01917718309724524,-0.024113454764022865,-0.09304170972275895,0.009726402818829898,0.014213716720695428,2.8061136633190237e-05,-0.0035227140274484295,-1.4287776405713122,0.006778872938901125,-0.008020398732073943,0.002579387690863339,0.004704968378900611,-0.005029114784917685,-0.0017110069597040132,-0.14019235188712692,-0.0001915196119108735,0.9405605122027322,nan,nan,nan,nan,nan,nan
54,0.27500000000000013,Standing,-0.11299421373752627,0.9354325955014801,0.2844317814712685,-0.005260392556639966,-0.0007389508821223079,-0.3974849869958795,-0.40723351584081957,0.13957567035462953,0.046504278692107354,0.02214381028029705,0.037532615152490574,0.03282494855966861,-0.2579998783084615,0.02234325558548261,-0.026016415587524374,-0.40061911941809036,-0.02452626535531837,0.02793645083090681,-0.0016751006971556233,-0.39677857917248277,-0.28117202311185546,-0.011684860968486428,0.05154839659547644,0.022467226465852773,0.04339988277076604,0.02978084215886445,-0.24727757198830871,-0.02373782758936217,-0.027341238109061413,-0.4006481353386216,0.025117961708223786,-0.5455442770020426,-0.030069976228420486,-0.07978143055807109,0.08129942523469527,-0.029531248802736432,-0.08011455708025972,-0.08142906152738824,-0.8038993023823026,-0.48003732756177625,-0.9694606452162604,4.3595171235366195,0.03635419617800728,-0.026105710186816622,-4.4615723431800705,1.158002180955064,-0.12218666199426062,0.03321718797154706,-0.1613239366242566,0.05267236859173466,-0.3653415063919736,-0.04514703603615056,0.03234350675945477,0.010839072510773541,0.010101751785138514,3.4563611733297535,0.01920206062023517,-0.009252651821564817,-2.488964140347152,-0.4943051218404883,-0.07206027733853132,0.018133475764944208,-0.06848086895254918,-0.00786813258165565,-0.19683389790466413,0.02257702244586866,0.019528263281800476,0.005563361752989852,-0.004371860061948974,-0.5817567431297463,0.008311540043137687,-0.009432859417480205,0.0030614937977409226,0.005238140099113683,-0.005248964977432468,-0.001805546717998333,-0.14183285815269694,-0.00019108628743578902,0.9384428323152486,nan,nan,nan,nan,nan,nan
55,0.28000000000000014,Standing,-0.11719153733788656,0.9330185617344648,0.2771430049772205,0.02064568294658683,-0.0005417703855344478,-0.3976405721804325,-0.4315333587019437,0.1439030133461918,0.04583467412101075,0.02233908945960891,0.03648789738373804,0.03335067156830098,-0.26003051070273225,0.022081146088199204,-0.025876729609367988,-0.40053527857251126,-0.02448605166220893,0.050461155334344004,-0.0015461810813570081,-0.3968527488131444,-0.29839123957458613,-0.011601924539803604,0.05102809361890564,0.022597643967262084,0.042818904212521276,0.02989212779694108,-0.24868177965277213,-0.023569030036466408,-0.027230602815949734,-0.40059436021999906,0.025094229507500423,-0.5460849038429015,-0.0300128008650879,-0.07983201018389348,0.08131696455065514,-0.02951080290998346,-0.0801314772758159,-0.08143500981196337,-0.8394647200720596,-0.48280675340304435,-1.457755298809602,5.181215100645359,0.03943609931757201,-0.031117036910613263,-4.859968572224827,0.865468598312451,-0.13392091421932084,0.03905583586237191,-0.20894355375050644,0.10514460172647441,-0.4061264788541482,-0.05242189945668089,0.027937195631277417,0.016768169115826924,0.008042738621888356,4.504940900687439,0.025783923159723013,-0.014833928132332688,-3.4438432925461377,0.016587285736564927,-0.1040605953141606,0.026083500281862314,-0.11619571164895298,0.02225712761532588,-0.2808415328926847,0.03375951057915245,0.022127058622335917,0.010755023724502193,-0.004746440144672841,-0.10812536817179086,0.011435072666516933,-0.010115925164477619,0.0035078631919728477,0.0040891785505947536,-0.00338403911123805,-0.001189656915027911,-0.14348997195964575,-0.00019072326818589383,0.9366711532597403,nan,nan,nan,nan,nan,nan
56,0.28500000000000014,Standing,-0.1213757772614664,0.9307601007322196,0.26927317810966733,0.04629592734326506,-0.0003592318576023779,-0.3977873558470533,-0.4538820994776247,0.14648745023763177,0.045219915565446606,0.02254337271661077,0.03526489147908169,0.034196611835454624,-0.26194270757734117,0.021817258192874972,-0.025781278746397077,-0.4004367233128346,-0.02445997898741058,0.07376838401751637,-0.0014128418490753716,-0.3969289133993806,-0.3159582029835257,-0.011010071558262441,0.05047708043779238,0.022743074368928175,0.0420457686048863,0.030341087816055885,-0.25015606481450364,-0.023376698326936483,-0.027133316581594985,-0.40053021394861466,0.025072695281177535,-0.5457477195037627,-0.029936957508445626,-0.07988140372831823,0.08133590841791533,-0.029481179513976892,-0.08014276887779595,-0.08144035345343494,-0.8368479847159656,-0.4516922004490511,-1.573965373510629,5.1300488793356465,0.036507705586413974,-0.02935673332415545,-4.4697481551361955,0.5168873782879935,-0.12295171111282927,0.040856651400371966,-0.2446011809312697,0.16918805343072923,-0.38243937492178104,-0.05277757906484667,0.01909017259418235,0.019711051935330202,0.005214534959669661,4.661445736634474,0.026667846456327315,-0.015232917247233184,-3.513392681787921,0.11837059630823261,-0.11020263622265215,0.029086080333218564,-0.15462712152699612,0.08979200382296107,-0.294857032346297,0.038466341905985295,0.019457246870949813,0.012829254276882631,-0.004306845264577377,0.06743686782778324,0.015168671328454734,-0.009878708884951034,0.0037887734520375763,0.005924679201313481,-0.002258320396009196,-0.001068728294312909,-0.14517914185599534,-0.0001904149035731881,0.9351660776132363,nan,nan,nan,nan,nan,nan
57,0.29000000000000015,Standing,-0.12543526282125933,0.9287133404073861,0.26183937806089985,0.06990766395733718,-0.00019887672396979068,-0.3979270101101611,-0.4734036549976901,0.1477825593817781,0.04469518577799849,0.022746487636192678,0.03411210314341533,0.03499480375474981,-0.26364853646744313,0.021578976241561288,-0.025727569716331666,-0.4003317902233685,-0.024447090082206337,0.09550267769057529,-0.0012901781316078812,-0.3969918029933729,-0.33174179567910567,-0.01064783479042122,0.049967905992465436,0.02288632572588112,0.04118029590998554,0.031048362229723927,-0.2515165829175033,-0.023185852000336044,-0.0270585692674928,-0.40046519869582736,0.025055285001737013,-0.545279631916508,-0.029847357050844157,-0.07992695225725392,0.08135517668802812,-0.029442164272153844,-0.08014954099564076,-0.08144543367331813,-0.8118971119585885,-0.4093520649667148,-1.486760009753501,4.722347322814423,0.032071026726517446,-0.027930852621552198,-3.9043111040130807,0.25902182882926716,-0.10494595748962258,0.04062298391638125,-0.23055766713327178,0.15963838385903645,-0.3411657780203934,-0.04765639026273697,0.010741806013082321,0.020986617893220354,0.0025777810408490367,4.346858734611783,0.024532743493498092,-0.012577918798464085,-3.1567185391159898,0.0724473535682444,-0.10183488906538893,0.02865027139058937,-0.17309453898015256,0.14145488273360848,-0.2721036205999254,0.0381692653200881,0.014949462820436923,0.013003050557461537,-0.0034820558881045755,0.0936175174509409,0.01792009152029378,-0.009109705787138905,0.0038536540225593626,0.007803048364609709,-0.001354423568961242,-0.0010160439766386368,-0.14692309143981902,-0.000190151778488769,0.9338814932066241,nan,nan,nan,nan,nan,nan
